;Sliced by ideaMaker 4.2.3.5600, 2022-03-17 01:38:08 UTC+0900
;Dimension: 215.000 215.000 200.000 0.400
;Plate Shape: 0
;Origin Center: 0
;Extruder Offset #1: 25.000 0.000
;Filament Diameter #1: 1.750
;Filament Diameter #2: 1.750
;Filament Compensation #1: 100.00
;Filament Compensation #2: 90.00
;Filament Density #1: 1240.00
;Filament Density #2: 1240.00
;Filament Type #1: PLA
;Filament Type #2: 
;Filament Name #1: [Raise3D] PLA 1.75mm
;Filament Name #2: 
;Firmware: Marlin
;Bounding Box: 73.476 140.973 73.292 143.308 0.000 4.520
;Model Gap: 0.140
M221 T0 S100.00
M140 S65.00
M104 T0 S210.00
M109 T0 S210.00
T0
M190 S65.00
;start
G21
M107
G28 X0 Y0 Z0
G91
G1 Z-10 F1000
G90
G28 Z F10
G1 X0 Y5 F4000
G1 Z1 F1300
G92 E0
G1 Y35 F100 E30 F50
G92 E0
G1 F900
;end of Start GCode
;TOTAL_NUM: 4
;PRINTING_TIME: 0
;REMAINING_TIME: 4360
M106 S0
;LAYER:-2
;Z:0.500
;HEIGHT:0.500
;PRINTING: NON-OBJECT
;PRINTING_ID: -1
G1 F2100 E-6.2000
M204 S700.00
M205 X7.00 Y7.00
G0 F7200 X75.394 Y76.169
G0 F1500 Z0.500
M204 S800.00
M205 X10.00 Y10.00
;TYPE:RAFT
;WIDTH:0.800
G1 F1800 E0.0100
G1 F600 X75.799 Y75.824 E0.0985
G1 X76.096 Y75.617 E0.1587
G1 X76.551 Y75.362 E0.2454
G1 X77.172 Y75.111 E0.3568
G1 X77.674 Y74.981 E0.4430
G1 X78.192 Y74.908 E0.5300
G1 X78.629 Y74.888 E0.6028
G1 X84.630 Y74.882 E1.6008
G1 X85.115 Y74.846 E1.6816
G1 X85.718 Y74.696 E1.7850
G1 X86.466 Y74.458 E1.9155
G1 X87.355 Y74.218 E2.0686
G1 X88.010 Y74.069 E2.1804
G1 X89.406 Y73.838 E2.4157
G1 X90.039 Y73.769 E2.5216
G1 X90.992 Y73.705 E2.6804
G1 X91.924 Y73.692 E2.8354
G1 X92.854 Y73.723 E2.9902
G1 X93.591 Y73.780 E3.1131
G1 X94.939 Y73.962 E3.3393
G1 X95.614 Y74.095 E3.4537
G1 X96.713 Y74.361 E3.6417
G1 X97.796 Y74.703 E3.8306
G1 X98.261 Y74.826 E3.9106
G1 X98.861 Y74.882 E4.0108
G1 X105.048 Y74.891 E5.0397
G1 X105.623 Y74.934 E5.1356
G1 X105.962 Y74.993 E5.1928
G1 X106.459 Y75.126 E5.2784
G1 X106.925 Y75.225 E5.3576
G1 X107.430 Y75.258 E5.4418
G1 X108.477 Y75.122 E5.6174
G1 X109.050 Y75.087 E5.7128
G1 X115.063 Y75.081 E6.7128
G1 X115.548 Y75.045 E6.7937
G1 X116.134 Y74.901 E6.8940
G1 X116.907 Y74.656 E7.0289
G1 X118.007 Y74.364 E7.2181
G1 X118.706 Y74.219 E7.3369
G1 X119.831 Y74.038 E7.5264
G1 X120.563 Y73.962 E7.6487
G1 X121.745 Y73.895 E7.8456
G1 X123.018 Y73.908 E8.0573
G1 X123.831 Y73.963 E8.1928
G1 X125.095 Y74.119 E8.4046
G1 X125.998 Y74.284 E8.5573
G1 X127.136 Y74.559 E8.7520
G1 X128.235 Y74.904 E8.9436
G1 X128.699 Y75.026 E9.0233
G1 X129.293 Y75.081 E9.1226
G1 X135.395 Y75.087 E10.1373
G1 X135.882 Y75.113 E10.2184
G1 X136.387 Y75.191 E10.3034
G1 X137.054 Y75.383 E10.4188
G1 X137.515 Y75.585 E10.5025
G1 X137.983 Y75.857 E10.5925
G1 X138.391 Y76.162 E10.6773
G1 X138.663 Y76.407 E10.7381
G1 X139.014 Y76.794 E10.8250
G1 X139.315 Y77.212 E10.9107
G1 X139.579 Y77.684 E11.0006
G1 X139.772 Y78.146 E11.0839
G1 X139.952 Y78.802 E11.1970
G1 X140.024 Y79.309 E11.2822
G1 X140.043 Y79.751 E11.3557
G1 X140.043 Y87.440 E12.6344
G1 X140.018 Y87.925 E12.7152
G1 X139.905 Y88.599 E12.8288
G1 X139.804 Y88.944 E12.8886
G1 X139.616 Y89.418 E12.9734
G1 X139.279 Y90.025 E13.0889
G1 X138.762 Y90.752 E13.2372
G1 X138.540 Y91.198 E13.3201
G1 X138.385 Y91.669 E13.4026
G1 X138.301 Y92.159 E13.4852
G1 X138.289 Y92.656 E13.5679
G1 X138.350 Y93.148 E13.6504
G1 X138.481 Y93.626 E13.7328
G1 X138.684 Y94.087 E13.8165
G1 X139.385 Y95.120 E14.0242
G1 X139.689 Y95.724 E14.1366
G1 X139.864 Y96.228 E14.2253
G1 X139.945 Y96.562 E14.2825
G1 X140.023 Y97.096 E14.3722
G1 X140.043 Y97.500 E14.4395
G1 X140.040 Y105.328 E15.7413
G1 X139.997 Y105.903 E15.8372
G1 X139.939 Y106.245 E15.8949
G1 X139.755 Y107.027 E16.0285
G1 X139.722 Y107.526 E16.1116
G1 X139.762 Y108.021 E16.1942
G1 X139.874 Y108.507 E16.2772
G1 X140.352 Y109.689 E16.4892
G1 X140.481 Y110.186 E16.5746
G1 X140.554 Y110.699 E16.6608
G1 X140.573 Y111.133 E16.7330
G1 X140.573 Y118.820 E18.0114
G1 X140.527 Y119.494 E18.1237
G1 X140.435 Y119.989 E18.2074
G1 X140.334 Y120.336 E18.2675
G1 X140.069 Y120.970 E18.3818
G1 X139.811 Y121.413 E18.4671
G1 X139.298 Y122.134 E18.6142
G1 X139.075 Y122.579 E18.6970
G1 X138.919 Y123.050 E18.7795
G1 X138.834 Y123.539 E18.8620
G1 X138.820 Y124.035 E18.9446
G1 X138.879 Y124.529 E19.0273
G1 X139.010 Y125.007 E19.1097
G1 X139.209 Y125.464 E19.1926
G1 X139.485 Y125.900 E19.2784
G1 X139.845 Y126.397 E19.3805
G1 X140.099 Y126.848 E19.4666
G1 X140.299 Y127.322 E19.5521
G1 X140.450 Y127.837 E19.6414
G1 X140.515 Y128.178 E19.6991
G1 X140.573 Y128.938 E19.8259
G1 X140.573 Y136.613 E21.1022
G1 X140.527 Y137.287 E21.2146
G1 X140.436 Y137.778 E21.2976
G1 X140.276 Y138.292 E21.3871
G1 X140.071 Y138.759 E21.4719
G1 X139.810 Y139.208 E21.5583
G1 X139.592 Y139.512 E21.6205
G1 X139.254 Y139.897 E21.7057
G1 X138.865 Y140.251 E21.7932
G1 X138.450 Y140.550 E21.8783
G1 X137.993 Y140.806 E21.9654
G1 X137.507 Y141.010 E22.0530
G1 X137.022 Y141.152 E22.1371
G1 X136.497 Y141.245 E22.2257
G1 X135.924 Y141.279 E22.3212
G1 X129.846 Y141.279 E23.3320
G1 X129.362 Y141.314 E23.4127
G1 X128.778 Y141.456 E23.5126
G1 X128.027 Y141.703 E23.6441
G1 X127.154 Y141.940 E23.7945
G1 X126.226 Y142.142 E23.9525
G1 X125.317 Y142.294 E24.1057
G1 X124.622 Y142.380 E24.2222
G1 X123.463 Y142.461 E24.4154
G1 X122.510 Y142.476 E24.5739
G1 X121.396 Y142.430 E24.7593
G1 X120.727 Y142.370 E24.8710
G1 X119.764 Y142.241 E25.0326
G1 X118.889 Y142.079 E25.1806
G1 X117.955 Y141.856 E25.3403
G1 X117.314 Y141.677 E25.4510
G1 X116.675 Y141.463 E25.5630
G1 X116.207 Y141.341 E25.6434
G1 X115.611 Y141.285 E25.7430
G1 X109.582 Y141.279 E26.7456
G1 X109.093 Y141.253 E26.8271
G1 X108.489 Y141.159 E26.9287
G1 X108.014 Y141.112 E27.0081
G1 X107.517 Y141.136 E27.0908
G1 X107.030 Y141.232 E27.1734
G1 X106.324 Y141.484 E27.2981
G1 X105.967 Y141.583 E27.3597
G1 X105.291 Y141.691 E27.4735
G1 X104.854 Y141.711 E27.5463
G1 X98.778 Y141.711 E28.5567
G1 X98.293 Y141.747 E28.6376
G1 X97.687 Y141.896 E28.7414
G1 X96.974 Y142.133 E28.8663
G1 X96.084 Y142.375 E29.0197
G1 X95.244 Y142.561 E29.1628
G1 X94.743 Y142.652 E29.2474
G1 X93.652 Y142.803 E29.4306
G1 X93.317 Y142.834 E29.4866
G1 X92.191 Y142.903 E29.6742
G1 X91.486 Y142.908 E29.7914
G1 X90.527 Y142.874 E29.9510
G1 X89.876 Y142.825 E30.0596
G1 X88.483 Y142.638 E30.2933
G1 X87.773 Y142.497 E30.4137
G1 X86.696 Y142.237 E30.5979
G1 X85.614 Y141.895 E30.7866
G1 X85.149 Y141.773 E30.8666
G1 X84.553 Y141.717 E30.9661
G1 X78.524 Y141.711 E31.9688
G1 X78.033 Y141.685 E32.0505
G1 X77.517 Y141.605 E32.1374
G1 X77.013 Y141.467 E32.2243
G1 X76.535 Y141.276 E32.3099
G1 X75.937 Y140.941 E32.4239
G1 X75.523 Y140.630 E32.5100
G1 X75.154 Y140.286 E32.5939
G1 X74.809 Y139.881 E32.6823
G1 X74.608 Y139.592 E32.7409
G1 X74.340 Y139.114 E32.8320
G1 X74.147 Y138.652 E32.9153
G1 X73.967 Y137.996 E33.0284
G1 X73.895 Y137.489 E33.1136
G1 X73.876 Y137.048 E33.1870
G1 X73.876 Y129.349 E34.4673
G1 X73.901 Y128.864 E34.5481
G1 X74.014 Y128.193 E34.6612
G1 X74.173 Y127.682 E34.7502
G1 X74.305 Y127.368 E34.8069
G1 X74.640 Y126.764 E34.9218
G1 X75.148 Y126.049 E35.0676
G1 X75.371 Y125.603 E35.1505
G1 X75.525 Y125.132 E35.2329
G1 X75.610 Y124.642 E35.3157
G1 X75.623 Y124.147 E35.3980
G1 X75.563 Y123.653 E35.4808
G1 X75.431 Y123.175 E35.5632
G1 X75.231 Y122.719 E35.6460
G1 X74.952 Y122.280 E35.7325
G1 X74.608 Y121.808 E35.8297
G1 X74.428 Y121.503 E35.8886
G1 X74.148 Y120.870 E36.0037
G1 X74.042 Y120.536 E36.0619
G1 X73.936 Y120.038 E36.1466
G1 X73.879 Y119.352 E36.2611
G1 X73.876 Y111.565 E37.5561
G1 X73.901 Y111.080 E37.6368
G1 X74.014 Y110.407 E37.7503
G1 X74.169 Y109.908 E37.8372
G1 X74.347 Y109.483 E37.9138
G1 X74.500 Y109.025 E37.9941
G1 X74.587 Y108.536 E38.0767
G1 X74.602 Y108.041 E38.1591
G1 X74.544 Y107.543 E38.2425
G1 X74.368 Y106.940 E38.3469
G1 X74.193 Y106.477 E38.4293
G1 X74.099 Y106.138 E38.4878
G1 X73.992 Y105.463 E38.6014
G1 X73.973 Y105.025 E38.6743
G1 X73.976 Y97.214 E39.9733
G1 X73.997 Y96.849 E40.0341
G1 X74.078 Y96.314 E40.1241
G1 X74.213 Y95.819 E40.2094
G1 X74.477 Y95.188 E40.3232
G1 X74.735 Y94.745 E40.4084
G1 X75.245 Y94.026 E40.5550
G1 X75.468 Y93.580 E40.6379
G1 X75.622 Y93.109 E40.7203
G1 X75.707 Y92.619 E40.8030
G1 X75.720 Y92.124 E40.8854
G1 X75.660 Y91.630 E40.9681
G1 X75.528 Y91.152 E41.0506
G1 X75.328 Y90.697 E41.1333
G1 X75.052 Y90.260 E41.2192
G1 X74.705 Y89.783 E41.3173
G1 X74.448 Y89.330 E41.4039
G1 X74.308 Y89.016 E41.4611
G1 X74.099 Y88.356 E41.5762
G1 X74.011 Y87.840 E41.6633
G1 X73.973 Y87.249 E41.7618
G1 X73.976 Y79.430 E43.0621
G1 X73.997 Y79.065 E43.1229
G1 X74.078 Y78.530 E43.2129
G1 X74.213 Y78.038 E43.2977
G1 X74.481 Y77.397 E43.4132
G1 X74.735 Y76.960 E43.4973
G1 X75.038 Y76.551 E43.5819
G1 X75.326 Y76.242 E43.6522
G0 F600 X75.394 Y76.169
M204 S700.00
M205 X7.00 Y7.00
G0 F7200 X75.144 Y76.944
M204 S800.00
M205 X10.00 Y10.00
G1 F600 X75.144 Y89.842 E45.7971
G1 F2100 E39.5971
M204 S700.00
M205 X7.00 Y7.00
G0 F7200 X75.144 Y94.721
M204 S800.00
M205 X10.00 Y10.00
G1 F1800 E45.8071
G1 F600 X75.144 Y122.000 E50.3437
G1 F2100 E44.1437
M204 S700.00
M205 X7.00 Y7.00
G0 F7200 X75.144 Y126.606
M204 S800.00
M205 X10.00 Y10.00
G1 F1800 E50.3537
G1 F600 X75.144 Y139.781 E52.5447
G1 X75.379 Y140.057 E52.6050
G1 X75.733 Y140.387 E52.6854
G1 X76.113 Y140.673 E52.7645
G1 X76.675 Y140.988 E52.8717
G1 X77.108 Y141.161 E52.9492
G1 X77.568 Y141.286 E53.0285
G1 X77.568 Y75.338 E63.9957
G1 X77.734 Y75.295 E64.0242
G1 X78.217 Y75.227 E64.1053
G1 X78.645 Y75.208 E64.1766
G1 X79.992 Y75.206 E64.4006
G1 X79.992 Y141.392 E75.4073
G1 X82.416 Y141.394 E75.8105
G1 X82.416 Y75.204 E86.8179
G1 X84.639 Y75.202 E87.1876
G1 X84.840 Y75.187 E87.2211
G1 X84.840 Y141.423 E98.2362
G1 X85.210 Y141.458 E98.2980
G1 X85.701 Y141.587 E98.3824
G1 X86.776 Y141.927 E98.5699
G1 X87.264 Y142.044 E98.6534
G1 X87.264 Y74.573 E109.8739
G1 X87.425 Y74.530 E109.9016
G1 X88.067 Y74.384 E110.0111
G1 X89.449 Y74.156 E110.2440
G1 X89.688 Y74.129 E110.2840
G1 X89.688 Y142.477 E121.6503
G1 X89.899 Y142.506 E121.6857
G1 X90.542 Y142.554 E121.7930
G1 X91.496 Y142.588 E121.9517
G1 X92.112 Y142.584 E122.0542
G1 X92.112 Y74.019 E133.4566
G1 X92.836 Y74.043 E133.5770
G1 X93.566 Y74.099 E133.6988
G1 X94.536 Y74.231 E133.8616
G1 X94.536 Y142.358 E145.1911
G1 X94.685 Y142.337 E145.2162
G1 X95.181 Y142.246 E145.3000
G1 X96.014 Y142.063 E145.4419
G1 X96.876 Y141.828 E145.5904
G1 X96.960 Y141.801 E145.6051
G1 X96.960 Y74.775 E156.7516
G1 X97.710 Y75.011 E156.8823
G1 X98.201 Y75.141 E156.9668
G1 X98.849 Y75.202 E157.0751
G1 X99.384 Y75.203 E157.1640
G1 X99.384 Y141.391 E168.1711
G1 X101.808 Y141.391 E168.5742
G1 X101.808 Y75.207 E179.5807
G1 X104.232 Y75.210 E179.9838
G1 X104.232 Y141.391 E190.9897
G1 X104.838 Y141.391 E191.0905
G1 X105.262 Y141.372 E191.1611
G1 X105.902 Y141.269 E191.2689
G1 X106.220 Y141.181 E191.3238
G1 X106.656 Y141.026 E191.4007
G1 X106.656 Y75.495 E202.2986
G1 X106.879 Y75.542 E202.3365
G1 X107.443 Y75.580 E202.4305
G1 X108.517 Y75.440 E202.6106
G1 X109.055 Y75.407 E202.7002
G1 X109.080 Y75.406 E202.7044
G1 X109.080 Y140.927 E213.6006
G1 X109.129 Y140.935 E213.6088
G1 X109.582 Y140.959 E213.6843
G1 X111.504 Y140.960 E214.0039
G1 X111.504 Y75.404 E224.9059
G1 X113.928 Y75.402 E225.3090
G1 X113.928 Y140.963 E236.2119
G1 X115.622 Y140.965 E236.4936
G1 X116.269 Y141.026 E236.6017
G1 X116.352 Y141.047 E236.6159
G1 X116.352 Y75.267 E247.5552
G0 F600 X116.352 Y75.167
M204 S700.00
M205 X7.00 Y7.00
G0 F7200 X116.988 Y74.966
M204 S800.00
M205 X10.00 Y10.00
G1 F600 X118.084 Y74.675 E247.7437
G1 X118.767 Y74.533 E247.8598
G1 X118.776 Y74.531 E247.8613
G1 X118.776 Y141.723 E259.0354
G1 X118.959 Y141.767 E259.0667
G1 X119.818 Y141.926 E259.2119
G1 X120.760 Y142.053 E259.3700
G1 X121.200 Y142.091 E259.4435
G1 X121.200 Y74.245 E270.7263
G1 X121.747 Y74.215 E270.8174
G1 X123.007 Y74.228 E271.0269
G1 X123.624 Y74.270 E271.1298
G1 X123.624 Y142.129 E282.4148
G1 X124.591 Y142.062 E282.5760
G1 X125.263 Y141.978 E282.6886
G1 X126.048 Y141.847 E282.8210
G1 X126.048 Y74.626 E293.9999
G1 X127.047 Y74.867 E294.1708
G1 X128.149 Y75.212 E294.3628
G1 X128.472 Y75.298 E294.4184
G1 X128.472 Y141.220 E305.3813
G1 X128.687 Y141.149 E305.4189
G1 X129.313 Y140.997 E305.5260
G1 X129.838 Y140.959 E305.6136
G1 X130.896 Y140.959 E305.7895
G1 X130.896 Y75.403 E316.6915
G1 X133.320 Y75.405 E317.0946
G1 X133.320 Y140.959 E327.9963
G1 X135.744 Y140.959 E328.3994
G1 X135.744 Y75.426 E339.2976
G1 X135.847 Y75.431 E339.3148
G1 X136.318 Y75.504 E339.3940
G1 X136.944 Y75.685 E339.5024
G1 X137.367 Y75.870 E339.5792
G1 X137.812 Y76.128 E339.6647
G1 X138.168 Y76.394 E339.7386
G1 X138.168 Y91.205 E342.2017
G0 F600 X138.168 Y91.305
G1 F2100 E336.0017
M204 S700.00
M205 X7.00 Y7.00
G0 F7200 X138.168 Y93.696
M204 S800.00
M205 X10.00 Y10.00
G1 F1800 E342.2117
G1 F600 X138.168 Y140.342 E349.9690
;PRINTING_TIME: 214
;REMAINING_TIME: 4146
M106 S179
;LAYER:-2
;Z:1.000
;HEIGHT:0.500
;PRINTING: NON-OBJECT
;PRINTING_ID: -1
M204 S700.00
M205 X7.00 Y7.00
G0 F1500 Z1.000
G0 F7200 X138.450 Y140.550
M204 S800.00
M205 X10.00 Y10.00
;TYPE:RAFT
;WIDTH:0.800
G1 F1080 X137.993 Y140.806 E350.0561
G1 X137.507 Y141.010 E350.1437
G1 X137.022 Y141.152 E350.2278
G1 X136.497 Y141.245 E350.3164
G1 X135.924 Y141.279 E350.4119
G1 X129.846 Y141.279 E351.4227
G1 X129.362 Y141.314 E351.5034
G1 X128.778 Y141.456 E351.6033
G1 X128.027 Y141.703 E351.7348
G1 X127.154 Y141.940 E351.8852
G1 X126.226 Y142.142 E352.0432
G1 X125.317 Y142.294 E352.1964
G1 X124.622 Y142.380 E352.3129
G1 X123.463 Y142.461 E352.5061
G1 X122.510 Y142.476 E352.6646
G1 X121.396 Y142.430 E352.8500
G1 X120.727 Y142.370 E352.9617
G1 X119.764 Y142.241 E353.1233
G1 X118.889 Y142.079 E353.2713
G1 X117.955 Y141.856 E353.4310
G1 X117.314 Y141.677 E353.5417
G1 X116.675 Y141.463 E353.6537
G1 X116.207 Y141.341 E353.7341
G1 X115.611 Y141.285 E353.8337
G1 X109.582 Y141.279 E354.8363
G1 X109.093 Y141.253 E354.9178
G1 X108.489 Y141.159 E355.0194
G1 X108.014 Y141.112 E355.0988
G1 X107.517 Y141.136 E355.1815
G1 X107.030 Y141.232 E355.2641
G1 X106.324 Y141.484 E355.3888
G1 X105.967 Y141.583 E355.4504
G1 X105.291 Y141.691 E355.5642
G1 X104.854 Y141.711 E355.6370
G1 X98.778 Y141.711 E356.6474
G1 X98.293 Y141.747 E356.7283
G1 X97.687 Y141.896 E356.8321
G1 X96.974 Y142.133 E356.9570
G1 X96.084 Y142.375 E357.1104
G1 X95.244 Y142.561 E357.2535
G1 X94.743 Y142.652 E357.3381
G1 X93.652 Y142.803 E357.5213
G1 X93.317 Y142.834 E357.5773
G1 X92.191 Y142.903 E357.7649
G1 X91.486 Y142.908 E357.8821
G1 X90.527 Y142.874 E358.0417
G1 X89.876 Y142.825 E358.1503
G1 X88.483 Y142.638 E358.3840
G1 X87.773 Y142.497 E358.5044
G1 X86.696 Y142.237 E358.6886
G1 X85.614 Y141.895 E358.8773
G1 X85.149 Y141.773 E358.9573
G1 X84.553 Y141.717 E359.0568
G1 X78.524 Y141.711 E360.0595
G1 X78.033 Y141.685 E360.1412
G1 X77.517 Y141.605 E360.2281
G1 X77.013 Y141.467 E360.3150
G1 X76.535 Y141.276 E360.4006
G1 X75.937 Y140.941 E360.5146
G1 X75.523 Y140.630 E360.6007
G1 X75.154 Y140.286 E360.6846
G1 X74.809 Y139.881 E360.7730
G1 X74.608 Y139.592 E360.8316
G1 X74.340 Y139.114 E360.9227
G1 X74.147 Y138.652 E361.0060
G1 X73.967 Y137.996 E361.1191
G1 X73.895 Y137.489 E361.2043
G1 X73.876 Y137.048 E361.2777
G1 X73.876 Y129.349 E362.5580
G1 X73.901 Y128.864 E362.6388
G1 X74.014 Y128.193 E362.7519
G1 X74.173 Y127.682 E362.8409
G1 X74.305 Y127.368 E362.8976
G1 X74.640 Y126.764 E363.0125
G1 X75.148 Y126.049 E363.1583
G1 X75.371 Y125.603 E363.2412
G1 X75.525 Y125.132 E363.3236
G1 X75.610 Y124.642 E363.4064
G1 X75.623 Y124.147 E363.4887
G1 X75.563 Y123.653 E363.5715
G1 X75.431 Y123.175 E363.6539
G1 X75.231 Y122.719 E363.7367
G1 X74.952 Y122.280 E363.8232
G1 X74.608 Y121.808 E363.9204
