;Sliced by ideaMaker 4.2.3.5600, 2022-03-15 23:25:15 UTC+0900
;Dimension: 215.000 215.000 200.000 0.400
;Plate Shape: 0
;Origin Center: 0
;Extruder Offset #1: 25.000 0.000
;Filament Diameter #1: 1.750
;Filament Diameter #2: 1.750
;Filament Compensation #1: 100.00
;Filament Compensation #2: 90.00
;Filament Density #1: 1240.00
;Filament Density #2: 1240.00
;Filament Type #1: PLA
;Filament Type #2: 
;Filament Name #1: [Raise3D] PLA 1.75mm
;Filament Name #2: 
;Firmware: Marlin
;Bounding Box: 26.876 189.726 55.693 164.598 0.000 19.990
;Model Gap: 0.140
M221 T0 S100.00
M140 S65.00
M104 T0 S210.00
M109 T0 S210.00
T0
M190 S65.00
;start
G21
M107
G28 X0 Y0 Z0
G91
G1 Z-10 F1000
G90
G28 Z F10
G1 X0 Y5 F4000
G1 Z1 F1300
G92 E0
G1 Y35 F100 E30 F50
G92 E0
G1 F900
;end of Start GCode
;TOTAL_NUM: 3
;PRINTING_TIME: 0
;REMAINING_TIME: 11061
M106 S0
;LAYER:-2
;Z:0.500
;HEIGHT:0.500
;PRINTING: NON-OBJECT
;PRINTING_ID: -1
G1 F2100 E-6.2000
M204 S700.00
M205 X7.00 Y7.00
G0 F7200 X45.009 Y57.126
G0 F1500 Z0.500
M204 S800.00
M205 X10.00 Y10.00
;TYPE:RAFT
;WIDTH:0.800
G1 F1800 E0.0100
G1 F600 X45.414 Y56.833 E0.0931
G1 X46.022 Y56.503 E0.2082
G1 X46.352 Y56.371 E0.2673
G1 X46.841 Y56.228 E0.3520
G1 X47.523 Y56.119 E0.4669
G1 X47.960 Y56.099 E0.5396
G1 X50.186 Y56.100 E0.9098
G1 X50.846 Y56.143 E1.0198
G1 X51.367 Y56.243 E1.1080
G1 X52.143 Y56.455 E1.2418
G1 X52.750 Y56.512 E1.3432
G1 X53.316 Y56.539 E1.4374
G1 X53.840 Y56.618 E1.5255
G1 X54.338 Y56.754 E1.6114
G1 X55.126 Y57.036 E1.7506
G1 X55.619 Y57.123 E1.8338
G1 X56.114 Y57.138 E1.9162
G1 X56.607 Y57.080 E1.9987
G1 X57.093 Y56.950 E2.0824
G1 X58.208 Y56.427 E2.2872
G1 X58.962 Y56.199 E2.4182
G1 X59.485 Y56.118 E2.5062
G1 X59.957 Y56.093 E2.5848
G1 X136.627 Y56.093 E15.3351
G1 X137.283 Y56.135 E15.4444
G1 X137.619 Y56.189 E15.5010
G1 X138.026 Y56.293 E15.5709
G1 X138.524 Y56.471 E15.6588
G1 X138.986 Y56.699 E15.7445
G1 X139.423 Y56.978 E15.8307
G1 X139.834 Y57.315 E15.9191
G1 X140.189 Y57.679 E16.0037
G1 X140.513 Y58.096 E16.0915
G1 X140.986 Y58.821 E16.2354
G1 X141.327 Y59.189 E16.3189
G1 X141.713 Y59.499 E16.4012
G1 X142.142 Y59.751 E16.4839
G1 X142.602 Y59.937 E16.5665
G1 X143.086 Y60.054 E16.6493
G1 X143.624 Y60.099 E16.7390
G1 X144.678 Y60.100 E16.9143
G1 X145.165 Y60.126 E16.9954
G1 X145.670 Y60.204 E17.0804
G1 X146.343 Y60.399 E17.1969
G1 X146.814 Y60.606 E17.2825
G1 X147.132 Y60.785 E17.3432
G1 X147.546 Y61.073 E17.4270
G1 X147.950 Y61.425 E17.5162
G1 X148.384 Y61.918 E17.6254
G1 X148.920 Y62.729 E17.7870
G1 X149.242 Y63.102 E17.8690
G1 X149.618 Y63.427 E17.9516
G1 X150.037 Y63.693 E18.0342
G1 X150.489 Y63.896 E18.1166
G1 X150.973 Y64.032 E18.2002
G1 X151.625 Y64.099 E18.3092
G1 X152.678 Y64.100 E18.4843
G1 X153.165 Y64.126 E18.5654
G1 X153.670 Y64.204 E18.6504
G1 X154.343 Y64.399 E18.7669
G1 X154.814 Y64.606 E18.8525
G1 X155.120 Y64.778 E18.9108
G1 X155.683 Y65.184 E19.0263
G1 X156.055 Y65.531 E19.1109
G1 X156.297 Y65.806 E19.1718
G1 X156.681 Y66.359 E19.2838
G1 X157.180 Y67.290 E19.4594
G1 X157.487 Y67.687 E19.5429
G1 X157.845 Y68.031 E19.6254
G1 X158.249 Y68.319 E19.7080
G1 X159.134 Y68.785 E19.8743
G1 X159.555 Y69.078 E19.9596
G1 X160.056 Y69.532 E20.0720
G1 X160.296 Y69.805 E20.1325
G1 X160.601 Y70.231 E20.2196
G1 X161.176 Y71.286 E20.4194
G1 X161.481 Y71.682 E20.5025
G1 X161.838 Y72.026 E20.5850
G1 X162.243 Y72.316 E20.6678
G1 X162.795 Y72.597 E20.7708
G1 X163.273 Y72.875 E20.8628
G1 X163.677 Y73.177 E20.9467
G1 X164.056 Y73.532 E21.0330
G1 X164.296 Y73.805 E21.0935
G1 X164.601 Y74.231 E21.1806
G1 X165.176 Y75.286 E21.3804
G1 X165.481 Y75.682 E21.4635
G1 X165.838 Y76.026 E21.5460
G1 X166.240 Y76.314 E21.6282
G1 X167.141 Y76.790 E21.7977
G1 X167.555 Y77.078 E21.8816
G1 X168.051 Y77.527 E21.9928
G1 X168.395 Y77.934 E22.0814
G1 X168.681 Y78.360 E22.1668
G1 X168.853 Y78.680 E22.2272
G1 X169.105 Y79.307 E22.3396
G1 X169.236 Y79.817 E22.4271
G1 X169.307 Y80.321 E22.5118
G1 X169.326 Y80.760 E22.5849
G1 X169.327 Y81.798 E22.7575
G1 X169.362 Y82.278 E22.8375
G1 X169.471 Y82.763 E22.9202
G1 X169.649 Y83.227 E23.0028
G1 X169.892 Y83.658 E23.0851
G1 X170.196 Y84.052 E23.1679
G1 X170.557 Y84.399 E23.2511
G1 X171.556 Y85.079 E23.4521
G1 X172.056 Y85.532 E23.5643
G1 X172.296 Y85.805 E23.6248
G1 X172.601 Y86.231 E23.7119
G1 X173.176 Y87.286 E23.9117
G1 X173.481 Y87.682 E23.9948
G1 X173.838 Y88.026 E24.0773
G1 X174.243 Y88.316 E24.1601
G1 X174.795 Y88.597 E24.2631
G1 X175.273 Y88.875 E24.3551
G1 X175.677 Y89.177 E24.4390
G1 X176.056 Y89.532 E24.5253
G1 X176.296 Y89.805 E24.5858
G1 X176.601 Y90.231 E24.6729
G1 X177.176 Y91.286 E24.8727
G1 X177.481 Y91.682 E24.9558
G1 X177.838 Y92.026 E25.0383
G1 X178.240 Y92.314 E25.1205
G1 X179.141 Y92.790 E25.2900
G1 X179.555 Y93.078 E25.3738
G1 X180.051 Y93.527 E25.4851
G1 X180.395 Y93.934 E25.5737
G1 X180.680 Y94.358 E25.6587
G1 X180.919 Y94.822 E25.7455
G1 X181.108 Y95.315 E25.8333
G1 X181.203 Y95.661 E25.8930
G1 X181.307 Y96.324 E26.0046
G1 X181.326 Y96.760 E26.0771
G1 X181.327 Y97.798 E26.2498
G1 X181.362 Y98.278 E26.3298
G1 X181.471 Y98.763 E26.4125
G1 X181.649 Y99.227 E26.4951
G1 X181.892 Y99.658 E26.5774
G1 X182.196 Y100.052 E26.6602
G1 X182.557 Y100.399 E26.7434
G1 X183.552 Y101.076 E26.9436
G1 X183.951 Y101.426 E27.0318
G1 X184.395 Y101.933 E27.1439
G1 X184.680 Y102.358 E27.2290
G1 X184.923 Y102.829 E27.3171
G1 X185.057 Y103.162 E27.3768
G1 X185.206 Y103.672 E27.4652
G1 X185.356 Y104.365 E27.5831
G1 X185.538 Y104.830 E27.6662
G1 X185.786 Y105.261 E27.7488
G1 X186.249 Y105.843 E27.8725
G1 X186.453 Y106.139 E27.9323
G1 X186.702 Y106.587 E28.0175
G1 X186.955 Y107.222 E28.1312
G1 X187.230 Y108.262 E28.3101
G1 X187.437 Y108.718 E28.3934
G1 X187.704 Y109.134 E28.4756
G1 X188.402 Y109.945 E28.6535
G1 X188.686 Y110.370 E28.7386
G1 X188.928 Y110.840 E28.8265
G1 X189.110 Y111.323 E28.9123
G1 X189.200 Y111.656 E28.9697
G1 X189.307 Y112.325 E29.0823
G1 X189.326 Y112.719 E29.1479
G1 X189.324 Y145.473 E34.5949
G1 X189.299 Y145.967 E34.6772
G1 X189.219 Y146.481 E34.7637
G1 X189.032 Y147.128 E34.8757
G1 X188.812 Y147.625 E34.9661
G1 X188.651 Y147.912 E35.0208
G1 X188.246 Y148.478 E35.1366
G1 X187.902 Y148.847 E35.2205
G1 X187.624 Y149.091 E35.2820
G1 X187.067 Y149.480 E35.3950
G1 X186.603 Y149.721 E35.4819
G1 X186.281 Y149.850 E35.5396
G1 X185.619 Y150.034 E35.6539
G1 X185.107 Y150.107 E35.7399
G1 X183.951 Y150.161 E35.9323
G1 X183.461 Y150.270 E36.0158
G1 X182.998 Y150.448 E36.0983
G1 X182.565 Y150.690 E36.1808
G1 X182.171 Y150.993 E36.2634
G1 X181.826 Y151.352 E36.3462
G1 X181.539 Y151.755 E36.4285
G1 X181.311 Y152.196 E36.5111
G1 X181.153 Y152.661 E36.5928
G1 X181.039 Y153.207 E36.6855
G1 X180.935 Y153.566 E36.7477
G1 X180.741 Y154.047 E36.8339
G1 X180.498 Y154.498 E36.9191
G1 X180.095 Y155.057 E37.0337
G1 X179.753 Y155.424 E37.1171
G1 X179.354 Y155.764 E37.2043
G1 X178.918 Y156.058 E37.2918
G1 X178.595 Y156.232 E37.3528
G1 X177.966 Y156.483 E37.4654
G1 X177.467 Y156.612 E37.5511
G1 X176.954 Y156.684 E37.6373
G1 X176.117 Y156.746 E37.7768
G1 X175.632 Y156.864 E37.8599
G1 X175.171 Y157.052 E37.9426
G1 X174.744 Y157.304 E38.0251
G1 X174.357 Y157.615 E38.1077
G1 X174.020 Y157.980 E38.1903
G1 X173.740 Y158.389 E38.2727
G1 X173.523 Y158.836 E38.3553
G1 X173.371 Y159.312 E38.4384
G1 X173.202 Y160.539 E38.6444
G1 X173.011 Y161.202 E38.7592
G1 X172.868 Y161.542 E38.8205
G1 X172.627 Y161.990 E38.9051
G1 X172.221 Y162.554 E39.0207
G1 X171.880 Y162.920 E39.1039
G1 X171.479 Y163.261 E39.1914
G1 X171.184 Y163.468 E39.2513
G1 X170.733 Y163.721 E39.3373
G1 X170.102 Y163.976 E39.4505
G1 X169.754 Y164.073 E39.5106
G1 X169.232 Y164.163 E39.5987
G1 X168.654 Y164.198 E39.6950
G1 X163.930 Y164.197 E40.4806
G1 X163.439 Y164.172 E40.5623
G1 X162.762 Y164.054 E40.6766
G1 X162.264 Y163.900 E40.7633
G1 X161.947 Y163.767 E40.8205
G1 X161.341 Y163.428 E40.9359
G1 X160.917 Y163.113 E41.0238
G1 X160.669 Y162.888 E41.0795
G1 X160.305 Y162.490 E41.1692
G1 X160.003 Y162.070 E41.2552
G1 X159.423 Y161.008 E41.4564
G1 X159.117 Y160.612 E41.5397
G1 X158.759 Y160.268 E41.6222
G1 X158.358 Y159.981 E41.7042
G1 X157.464 Y159.507 E41.8725
G1 X157.033 Y159.207 E41.9598
G1 X156.755 Y158.970 E42.0206
G1 X156.299 Y158.481 E42.1318
G1 X155.990 Y158.050 E42.2200
G1 X155.814 Y157.745 E42.2785
G1 X155.606 Y157.288 E42.3620
G1 X155.377 Y156.532 E42.4934
G1 X155.296 Y156.011 E42.5811
G1 X155.272 Y155.598 E42.6499
G1 X155.278 Y146.823 E44.1092
G1 X155.321 Y146.172 E44.2177
G1 X155.421 Y145.655 E44.3052
G1 X155.578 Y145.151 E44.3930
G1 X155.783 Y144.686 E44.4775
G1 X156.044 Y144.237 E44.5639
G1 X156.363 Y143.811 E44.6524
G1 X156.701 Y143.449 E44.7348
G1 X157.101 Y143.110 E44.8220
G1 X157.901 Y142.581 E44.9815
G1 X158.274 Y142.259 E45.0634
G1 X158.599 Y141.883 E45.1461
G1 X158.865 Y141.464 E45.2286
G1 X159.068 Y141.012 E45.3110
G1 X159.204 Y140.528 E45.3946
G1 X159.271 Y139.872 E45.5043
G1 X159.271 Y132.929 E46.6589
G1 X159.236 Y132.449 E46.7389
G1 X159.128 Y131.964 E46.8216
G1 X158.950 Y131.501 E46.9040
G1 X158.708 Y131.069 E46.9864
G1 X158.442 Y130.720 E47.0594
G1 X158.049 Y130.255 E47.1606
G1 X157.762 Y129.825 E47.2466
G1 X157.520 Y129.354 E47.3347
G1 X157.390 Y129.026 E47.3933
G1 X157.244 Y128.526 E47.4800
G1 X157.095 Y127.842 E47.5964
G1 X156.915 Y127.378 E47.6791
G1 X156.670 Y126.945 E47.7619
G1 X156.199 Y126.352 E47.8878
G1 X155.997 Y126.059 E47.9470
G1 X155.434 Y125.021 E48.1434
G1 X155.131 Y124.625 E48.2263
G1 X154.775 Y124.279 E48.3088
G1 X154.373 Y123.989 E48.3913
G1 X153.467 Y123.510 E48.5617
G1 X152.922 Y123.116 E48.6735
G1 X152.547 Y122.765 E48.7590
G1 X152.311 Y122.497 E48.8184
G1 X151.921 Y121.933 E48.9324
G1 X151.680 Y121.468 E49.0195
G1 X151.546 Y121.135 E49.0792
G1 X151.400 Y120.633 E49.1661
G1 X151.296 Y119.973 E49.2772
G1 X151.277 Y119.538 E49.3496
G1 X151.276 Y118.499 E49.5224
G1 X151.241 Y118.019 E49.6025
G1 X151.132 Y117.534 E49.6851
G1 X150.954 Y117.070 E49.7678
G1 X150.711 Y116.639 E49.8501
G1 X150.407 Y116.245 E49.9328
G1 X150.046 Y115.898 E50.0161
G1 X149.047 Y115.218 E50.2171
G1 X148.547 Y114.765 E50.3293
G1 X148.307 Y114.492 E50.3897
G1 X148.002 Y114.066 E50.4768
G1 X147.427 Y113.011 E50.6767
G1 X147.122 Y112.615 E50.7598
G1 X146.765 Y112.271 E50.8422
G1 X146.360 Y111.981 E50.9251
G1 X145.808 Y111.700 E51.0281
G1 X145.330 Y111.422 E51.1200
G1 X144.926 Y111.120 E51.2039
G1 X144.547 Y110.765 E51.2903
G1 X144.307 Y110.492 E51.3507
G1 X144.002 Y110.066 E51.4379
G1 X143.427 Y109.011 E51.6377
G1 X143.122 Y108.615 E51.7208
G1 X142.765 Y108.271 E51.8032
G1 X142.363 Y107.983 E51.8855
G1 X141.462 Y107.507 E52.0549
G1 X141.053 Y107.223 E52.1377
G1 X140.651 Y106.870 E52.2267
G1 X140.303 Y106.487 E52.3128
G1 X140.004 Y106.069 E52.3982
G1 X139.748 Y105.613 E52.4852
G1 X139.498 Y104.990 E52.5968
G1 X139.367 Y104.480 E52.6844
G1 X139.296 Y103.976 E52.7691
G1 X139.277 Y103.538 E52.8420
G1 X139.276 Y102.499 E53.0147
G1 X139.241 Y102.019 E53.0948
G1 X139.132 Y101.534 E53.1774
G1 X138.954 Y101.070 E53.2601
G1 X138.711 Y100.639 E53.3424
G1 X138.407 Y100.245 E53.4251
G1 X138.046 Y99.898 E53.5084
G1 X137.047 Y99.218 E53.7094
G1 X136.545 Y98.763 E53.8221
G1 X136.307 Y98.492 E53.8820
G1 X136.002 Y98.066 E53.9692
G1 X135.427 Y97.011 E54.1690
G1 X135.122 Y96.615 E54.2521
G1 X134.765 Y96.271 E54.3345
G1 X134.363 Y95.983 E54.4168
G1 X133.467 Y95.510 E54.5853
G1 X132.921 Y95.115 E54.6973
G1 X132.552 Y94.770 E54.7814
G1 X132.300 Y94.482 E54.8450
G1 X131.997 Y94.060 E54.9314
G1 X131.699 Y93.588 E55.0242
G1 X131.378 Y93.212 E55.1064
G1 X131.005 Y92.884 E55.1890
G1 X130.587 Y92.614 E55.2718
G1 X130.136 Y92.409 E55.3542
G1 X129.653 Y92.269 E55.4378
G1 X128.979 Y92.198 E55.5505
G1 X127.925 Y92.197 E55.7258
G1 X127.438 Y92.171 E55.8069
G1 X126.933 Y92.093 E55.8919
G1 X126.260 Y91.898 E56.0084
G1 X125.794 Y91.693 E56.0931
G1 X125.344 Y91.430 E56.1797
G1 X124.923 Y91.116 E56.2671
G1 X124.657 Y90.877 E56.3266
G1 X124.219 Y90.379 E56.4368
G1 X123.683 Y89.568 E56.5985
G1 X123.361 Y89.195 E56.6805
G1 X122.985 Y88.870 E56.7631
G1 X122.566 Y88.604 E56.8456
G1 X122.114 Y88.401 E56.9280
G1 X121.630 Y88.265 E57.0116
G1 X120.978 Y88.198 E57.1206
G1 X119.925 Y88.197 E57.2958
G1 X119.438 Y88.171 E57.3769
G1 X118.933 Y88.093 E57.4618
G1 X118.260 Y87.898 E57.5784
G1 X117.794 Y87.693 E57.6630
G1 X117.344 Y87.430 E57.7497
G1 X116.923 Y87.116 E57.8371
G1 X116.657 Y86.877 E57.8965
G1 X116.215 Y86.374 E58.0079
G1 X115.676 Y85.561 E58.1701
G1 X115.352 Y85.189 E58.2521
G1 X114.975 Y84.866 E58.3347
G1 X114.554 Y84.602 E58.4173
G1 X114.101 Y84.401 E58.4997
G1 X113.618 Y84.267 E58.5831
G1 X112.977 Y84.204 E58.6902
G1 X43.966 Y84.204 E70.1668
G1 X43.474 Y84.179 E70.2487
G1 X42.981 Y84.107 E70.3316
G1 X42.412 Y83.953 E70.4296
G1 X42.086 Y83.830 E70.4875
G1 X41.397 Y83.524 E70.6129
G1 X40.913 Y83.398 E70.6961
G1 X40.420 Y83.343 E70.7786
G1 X39.923 Y83.361 E70.8613
G1 X39.426 Y83.453 E70.9454
G1 X38.209 Y83.936 E71.1631
G1 X37.579 Y84.112 E71.2719
G1 X37.114 Y84.179 E71.3500
G1 X36.637 Y84.204 E71.4294
G1 X31.836 Y84.194 E72.2279
G1 X31.260 Y84.151 E72.3239
G1 X30.930 Y84.094 E72.3796
G1 X30.264 Y83.900 E72.4950
G1 X29.796 Y83.694 E72.5800
G1 X29.338 Y83.428 E72.6681
G1 X28.915 Y83.110 E72.7561
G1 X28.661 Y82.881 E72.8130
G1 X28.207 Y82.363 E72.9275
G1 X27.920 Y81.936 E73.0131
G1 X27.741 Y81.603 E73.0759
G1 X27.545 Y81.133 E73.1606
G1 X27.401 Y80.644 E73.2454
G1 X27.294 Y79.959 E73.3607
G1 X27.276 Y79.532 E73.4318
G1 X27.278 Y74.834 E74.2130
G1 X27.321 Y74.174 E74.3230
G1 X27.420 Y73.657 E74.4106
G1 X27.576 Y73.153 E74.4983
G1 X27.708 Y72.838 E74.5551
G1 X28.043 Y72.239 E74.6692
G1 X28.358 Y71.818 E74.7567
G1 X28.701 Y71.450 E74.8403
G1 X29.103 Y71.107 E74.9282
G1 X29.534 Y70.818 E75.0145
G1 X29.990 Y70.580 E75.1001
G1 X30.484 Y70.392 E75.1880
G1 X30.982 Y70.263 E75.2735
G1 X31.507 Y70.189 E75.3617
G1 X32.341 Y70.127 E75.5008
G1 X32.827 Y70.007 E75.5840
G1 X33.286 Y69.819 E75.6665
G1 X33.713 Y69.568 E75.7489
G1 X34.100 Y69.256 E75.8315
G1 X34.437 Y68.891 E75.9142
G1 X34.717 Y68.480 E75.9969
G1 X34.934 Y68.033 E76.0795
G1 X35.084 Y67.558 E76.1623
G1 X35.168 Y66.985 E76.2586
G1 X35.195 Y66.677 E76.3101
G1 X35.293 Y66.162 E76.3972
G1 X35.448 Y65.662 E76.4843
G1 X35.581 Y65.345 E76.5415
G1 X35.916 Y64.744 E76.6559
G1 X36.231 Y64.323 E76.7433
G1 X36.574 Y63.955 E76.8270
G1 X36.979 Y63.610 E76.9155
G1 X37.270 Y63.406 E76.9746
G1 X37.729 Y63.148 E77.0621
G1 X38.216 Y62.944 E77.1499
G1 X38.697 Y62.803 E77.2333
G1 X39.229 Y62.710 E77.3231
G1 X40.525 Y62.641 E77.5389
G1 X41.014 Y62.532 E77.6222
G1 X41.477 Y62.354 E77.7047
G1 X41.910 Y62.112 E77.7872
G1 X42.304 Y61.809 E77.8699
G1 X42.649 Y61.450 E77.9527
G1 X42.936 Y61.047 E78.0350
G1 X43.164 Y60.606 E78.1175
G1 X43.322 Y60.141 E78.1992
G1 X43.437 Y59.593 E78.2923
G1 X43.539 Y59.246 E78.3525
G1 X43.730 Y58.765 E78.4385
G1 X44.066 Y58.163 E78.5532
G1 X44.265 Y57.886 E78.6099
G1 X44.624 Y57.476 E78.7005
G1 X44.935 Y57.193 E78.7705
G0 F600 X45.009 Y57.126
G1 F2100 E72.5705
M204 S700.00
M205 X7.00 Y7.00
G0 F7200 X29.088 Y82.835
M204 S800.00
M205 X10.00 Y10.00
G1 F1800 E78.7805
G1 F600 X29.088 Y71.540 E80.6588
G1 X29.298 Y71.362 E80.7046
G1 X29.695 Y71.095 E80.7842
G1 X30.123 Y70.872 E80.8644
G1 X30.585 Y70.697 E80.9466
G1 X31.042 Y70.577 E81.0252
G1 X31.512 Y70.510 E81.1041
G1 X31.512 Y83.848 E83.3222
G1 X31.850 Y83.874 E83.3786
G1 X33.936 Y83.878 E83.7255
G1 X33.936 Y69.799 E86.0669
G1 X34.318 Y69.492 E86.1484
G1 X34.689 Y69.091 E86.2392
G1 X34.994 Y68.642 E86.3295
G1 X35.233 Y68.149 E86.4206
G1 X35.397 Y67.631 E86.5109
G1 X35.485 Y67.025 E86.6128
G1 X35.512 Y66.726 E86.6627
G1 X35.604 Y66.237 E86.7455
G1 X35.748 Y65.776 E86.8258
