;Sliced by ideaMaker 4.2.3.5600, 2022-03-15 23:23:15 UTC+0900
;Dimension: 315.000 315.000 300.000 0.400
;Plate Shape: 0
;Origin Center: 0
;Extruder Offset #1: 25.000 0.000
;Filament Diameter #1: 1.750
;Filament Diameter #2: 1.750
;Filament Compensation #1: 100.00
;Filament Compensation #2: 90.00
;Filament Density #1: 1240.00
;Filament Density #2: 1240.00
;Filament Type #1: PLA
;Filament Type #2: 
;Filament Name #1: [Raise3D] PLA 1.75mm
;Filament Name #2: 
;Firmware: Marlin
;Bounding Box: 76.876 239.726 105.693 214.598 0.000 19.990
;Model Gap: 0.140
M221 T0 S100.00
M140 S65.00
M104 T0 S210.00
M109 T0 S210.00
T0
M190 S65.00
;start
G21
M107
G28 X0 Y0 Z0
G91
G1 Z-10 F1000
G90
G28 Z F10
G1 X0 Y5 F4000
G1 Z1 F1300
G92 E0
G1 Y35 F100 E30 F50
G92 E0
G1 F900
;end of Start GCode
;TOTAL_NUM: 3
;PRINTING_TIME: 0
;REMAINING_TIME: 9591
M106 S0
;LAYER:-2
;Z:0.500
;HEIGHT:0.500
;PRINTING: NON-OBJECT
;PRINTING_ID: -1
G1 F2100 E-1.6000
M204 S700.00
M205 X7.00 Y7.00
G0 F7200 X86.979 Y113.610
G0 F1500 Z0.500
M204 S800.00
M205 X10.00 Y10.00
;TYPE:RAFT
;WIDTH:0.800
G1 F1800 E0.0100
G1 F600 X87.270 Y113.406 E0.0691
G1 X87.729 Y113.148 E0.1567
G1 X88.216 Y112.944 E0.2445
G1 X88.697 Y112.803 E0.3278
G1 X89.229 Y112.710 E0.4176
G1 X90.525 Y112.641 E0.6335
G1 X91.014 Y112.532 E0.7168
G1 X91.477 Y112.354 E0.7993
G1 X91.910 Y112.112 E0.8818
G1 X92.304 Y111.809 E0.9644
G1 X92.649 Y111.450 E1.0472
G1 X92.936 Y111.047 E1.1295
G1 X93.164 Y110.606 E1.2121
G1 X93.322 Y110.141 E1.2937
G1 X93.437 Y109.593 E1.3869
G1 X93.539 Y109.246 E1.4470
G1 X93.730 Y108.765 E1.5331
G1 X94.066 Y108.163 E1.6477
G1 X94.265 Y107.886 E1.7044
G1 X94.624 Y107.476 E1.7951
G1 X95.009 Y107.126 E1.8816
G1 X95.414 Y106.833 E1.9647
G1 X96.022 Y106.503 E2.0798
G1 X96.352 Y106.371 E2.1389
G1 X96.841 Y106.228 E2.2236
G1 X97.523 Y106.119 E2.3385
G1 X97.960 Y106.099 E2.4112
G1 X100.186 Y106.100 E2.7814
G1 X100.846 Y106.143 E2.8914
G1 X101.367 Y106.243 E2.9796
G1 X102.143 Y106.455 E3.1134
G1 X102.750 Y106.512 E3.2148
G1 X103.316 Y106.539 E3.3090
G1 X103.840 Y106.618 E3.3971
G1 X104.338 Y106.754 E3.4830
G1 X105.126 Y107.036 E3.6222
G1 X105.619 Y107.123 E3.7054
G1 X106.114 Y107.138 E3.7878
G1 X106.607 Y107.080 E3.8703
G1 X107.093 Y106.950 E3.9540
G1 X108.208 Y106.427 E4.1588
G1 X108.962 Y106.199 E4.2898
G1 X109.485 Y106.118 E4.3778
G1 X109.957 Y106.093 E4.4564
G1 X186.627 Y106.093 E17.2067
G1 X187.283 Y106.135 E17.3160
G1 X187.619 Y106.189 E17.3726
G1 X188.026 Y106.293 E17.4425
G1 X188.524 Y106.471 E17.5304
G1 X188.986 Y106.699 E17.6161
G1 X189.423 Y106.978 E17.7023
G1 X189.834 Y107.315 E17.7907
G1 X190.189 Y107.679 E17.8753
G1 X190.513 Y108.096 E17.9631
G1 X190.986 Y108.821 E18.1070
G1 X191.327 Y109.189 E18.1905
G1 X191.713 Y109.499 E18.2728
G1 X192.142 Y109.751 E18.3555
G1 X192.602 Y109.937 E18.4381
G1 X193.086 Y110.054 E18.5209
G1 X193.624 Y110.099 E18.6106
G1 X194.678 Y110.100 E18.7859
G1 X195.165 Y110.126 E18.8670
G1 X195.670 Y110.204 E18.9520
G1 X196.343 Y110.399 E19.0685
G1 X196.814 Y110.606 E19.1541
G1 X197.132 Y110.785 E19.2148
G1 X197.546 Y111.073 E19.2986
G1 X197.950 Y111.425 E19.3878
G1 X198.384 Y111.918 E19.4970
G1 X198.920 Y112.729 E19.6586
G1 X199.242 Y113.102 E19.7406
G1 X199.618 Y113.427 E19.8232
G1 X200.037 Y113.693 E19.9058
G1 X200.489 Y113.896 E19.9882
G1 X200.973 Y114.032 E20.0718
G1 X201.625 Y114.099 E20.1808
G1 X202.678 Y114.100 E20.3559
G1 X203.165 Y114.126 E20.4370
G1 X203.670 Y114.204 E20.5220
G1 X204.343 Y114.399 E20.6385
G1 X204.814 Y114.606 E20.7241
G1 X205.120 Y114.778 E20.7824
G1 X205.683 Y115.184 E20.8979
G1 X206.055 Y115.531 E20.9825
G1 X206.297 Y115.806 E21.0434
G1 X206.681 Y116.359 E21.1554
G1 X207.180 Y117.290 E21.3310
G1 X207.487 Y117.687 E21.4145
G1 X207.845 Y118.031 E21.4970
G1 X208.249 Y118.319 E21.5796
G1 X209.134 Y118.785 E21.7459
G1 X209.555 Y119.078 E21.8312
G1 X210.056 Y119.532 E21.9436
G1 X210.296 Y119.805 E22.0041
G1 X210.601 Y120.231 E22.0912
G1 X211.176 Y121.286 E22.2910
G1 X211.481 Y121.682 E22.3741
G1 X211.838 Y122.026 E22.4566
G1 X212.243 Y122.316 E22.5394
G1 X212.795 Y122.597 E22.6424
G1 X213.273 Y122.875 E22.7344
G1 X213.677 Y123.177 E22.8183
G1 X214.056 Y123.532 E22.9046
G1 X214.296 Y123.805 E22.9651
G1 X214.601 Y124.231 E23.0522
G1 X215.176 Y125.286 E23.2520
G1 X215.481 Y125.682 E23.3351
G1 X215.838 Y126.026 E23.4176
G1 X216.240 Y126.314 E23.4998
G1 X217.141 Y126.790 E23.6693
G1 X217.555 Y127.078 E23.7532
G1 X218.051 Y127.527 E23.8644
G1 X218.395 Y127.934 E23.9530
G1 X218.681 Y128.360 E24.0384
G1 X218.853 Y128.680 E24.0988
G1 X219.105 Y129.307 E24.2112
G1 X219.236 Y129.817 E24.2987
G1 X219.307 Y130.321 E24.3834
G1 X219.326 Y130.760 E24.4565
G1 X219.327 Y131.798 E24.6291
G1 X219.362 Y132.278 E24.7091
G1 X219.471 Y132.763 E24.7918
G1 X219.649 Y133.227 E24.8744
G1 X219.892 Y133.658 E24.9567
G1 X220.196 Y134.052 E25.0395
G1 X220.557 Y134.399 E25.1227
G1 X221.556 Y135.079 E25.3237
G1 X222.056 Y135.532 E25.4359
G1 X222.296 Y135.805 E25.4964
G1 X222.601 Y136.231 E25.5835
G1 X223.176 Y137.286 E25.7833
G1 X223.481 Y137.682 E25.8664
G1 X223.838 Y138.026 E25.9489
G1 X224.243 Y138.316 E26.0317
G1 X224.795 Y138.597 E26.1347
G1 X225.273 Y138.875 E26.2267
G1 X225.677 Y139.177 E26.3106
G1 X226.056 Y139.532 E26.3969
G1 X226.296 Y139.805 E26.4574
G1 X226.601 Y140.231 E26.5445
G1 X227.176 Y141.286 E26.7443
G1 X227.481 Y141.682 E26.8274
G1 X227.838 Y142.026 E26.9099
G1 X228.240 Y142.314 E26.9921
G1 X229.141 Y142.790 E27.1616
G1 X229.555 Y143.078 E27.2454
G1 X230.051 Y143.527 E27.3567
G1 X230.395 Y143.934 E27.4453
G1 X230.680 Y144.358 E27.5303
G1 X230.919 Y144.822 E27.6171
G1 X231.108 Y145.315 E27.7049
G1 X231.203 Y145.661 E27.7646
G1 X231.307 Y146.324 E27.8762
G1 X231.326 Y146.760 E27.9487
G1 X231.327 Y147.798 E28.1214
G1 X231.362 Y148.278 E28.2014
G1 X231.471 Y148.763 E28.2841
G1 X231.649 Y149.227 E28.3667
G1 X231.892 Y149.658 E28.4490
G1 X232.196 Y150.052 E28.5318
G1 X232.557 Y150.399 E28.6150
G1 X233.552 Y151.076 E28.8152
G1 X233.951 Y151.426 E28.9034
G1 X234.395 Y151.933 E29.0155
G1 X234.680 Y152.358 E29.1006
G1 X234.923 Y152.829 E29.1887
G1 X235.057 Y153.162 E29.2484
G1 X235.206 Y153.672 E29.3368
G1 X235.356 Y154.365 E29.4547
G1 X235.538 Y154.830 E29.5378
G1 X235.786 Y155.261 E29.6204
G1 X236.249 Y155.843 E29.7441
G1 X236.453 Y156.139 E29.8039
G1 X236.702 Y156.587 E29.8891
G1 X236.955 Y157.222 E30.0028
G1 X237.230 Y158.262 E30.1817
G1 X237.437 Y158.718 E30.2650
G1 X237.704 Y159.134 E30.3472
G1 X238.402 Y159.945 E30.5251
G1 X238.686 Y160.370 E30.6102
G1 X238.928 Y160.840 E30.6981
G1 X239.110 Y161.323 E30.7839
G1 X239.200 Y161.656 E30.8413
G1 X239.307 Y162.325 E30.9539
G1 X239.326 Y162.719 E31.0195
G1 X239.324 Y195.473 E36.4665
G1 X239.299 Y195.967 E36.5488
G1 X239.219 Y196.481 E36.6353
G1 X239.032 Y197.128 E36.7473
G1 X238.812 Y197.625 E36.8377
G1 X238.651 Y197.912 E36.8924
G1 X238.246 Y198.478 E37.0082
G1 X237.902 Y198.847 E37.0921
G1 X237.624 Y199.091 E37.1536
G1 X237.067 Y199.480 E37.2666
G1 X236.603 Y199.721 E37.3535
G1 X236.281 Y199.850 E37.4112
G1 X235.619 Y200.034 E37.5255
G1 X235.107 Y200.107 E37.6115
G1 X233.951 Y200.161 E37.8039
G1 X233.461 Y200.270 E37.8874
G1 X232.998 Y200.448 E37.9699
G1 X232.565 Y200.690 E38.0524
G1 X232.171 Y200.993 E38.1350
G1 X231.826 Y201.352 E38.2178
G1 X231.539 Y201.755 E38.3001
G1 X231.311 Y202.196 E38.3827
G1 X231.153 Y202.661 E38.4644
G1 X231.039 Y203.207 E38.5571
G1 X230.935 Y203.566 E38.6193
G1 X230.741 Y204.047 E38.7055
G1 X230.498 Y204.498 E38.7907
G1 X230.095 Y205.057 E38.9053
G1 X229.753 Y205.424 E38.9887
G1 X229.354 Y205.764 E39.0759
G1 X228.918 Y206.058 E39.1634
G1 X228.595 Y206.232 E39.2244
G1 X227.966 Y206.483 E39.3370
G1 X227.467 Y206.612 E39.4227
G1 X226.954 Y206.684 E39.5089
G1 X226.117 Y206.746 E39.6484
G1 X225.632 Y206.864 E39.7314
G1 X225.171 Y207.052 E39.8142
G1 X224.744 Y207.304 E39.8967
G1 X224.357 Y207.615 E39.9793
G1 X224.020 Y207.980 E40.0619
G1 X223.740 Y208.389 E40.1443
G1 X223.523 Y208.836 E40.2269
G1 X223.371 Y209.312 E40.3100
G1 X223.202 Y210.539 E40.5160
G1 X223.011 Y211.202 E40.6308
G1 X222.868 Y211.542 E40.6921
G1 X222.627 Y211.990 E40.7767
G1 X222.221 Y212.554 E40.8923
G1 X221.880 Y212.920 E40.9755
G1 X221.479 Y213.261 E41.0630
G1 X221.184 Y213.468 E41.1229
G1 X220.733 Y213.721 E41.2089
G1 X220.102 Y213.976 E41.3221
G1 X219.754 Y214.073 E41.3822
G1 X219.232 Y214.163 E41.4703
G1 X218.654 Y214.198 E41.5666
G1 X213.930 Y214.197 E42.3522
G1 X213.439 Y214.172 E42.4339
G1 X212.762 Y214.054 E42.5482
G1 X212.264 Y213.900 E42.6349
G1 X211.947 Y213.767 E42.6921
G1 X211.341 Y213.428 E42.8075
G1 X210.917 Y213.113 E42.8954
G1 X210.669 Y212.888 E42.9511
G1 X210.305 Y212.490 E43.0408
G1 X210.003 Y212.070 E43.1268
G1 X209.423 Y211.008 E43.3280
G1 X209.117 Y210.612 E43.4113
G1 X208.759 Y210.268 E43.4938
G1 X208.358 Y209.981 E43.5758
G1 X207.464 Y209.507 E43.7441
G1 X207.033 Y209.207 E43.8314
G1 X206.755 Y208.970 E43.8922
G1 X206.299 Y208.481 E44.0034
G1 X205.990 Y208.050 E44.0916
G1 X205.814 Y207.745 E44.1501
G1 X205.606 Y207.288 E44.2336
G1 X205.377 Y206.532 E44.3650
G1 X205.296 Y206.011 E44.4527
G1 X205.272 Y205.598 E44.5215
G1 X205.278 Y196.823 E45.9808
G1 X205.321 Y196.172 E46.0893
G1 X205.421 Y195.655 E46.1768
G1 X205.578 Y195.151 E46.2646
G1 X205.783 Y194.686 E46.3491
G1 X206.044 Y194.237 E46.4355
G1 X206.363 Y193.811 E46.5240
G1 X206.701 Y193.449 E46.6064
G1 X207.101 Y193.110 E46.6936
G1 X207.901 Y192.581 E46.8531
G1 X208.274 Y192.259 E46.9350
G1 X208.599 Y191.883 E47.0177
G1 X208.865 Y191.464 E47.1002
G1 X209.068 Y191.012 E47.1826
G1 X209.204 Y190.528 E47.2662
G1 X209.271 Y189.872 E47.3759
G1 X209.271 Y182.929 E48.5305
G1 X209.236 Y182.449 E48.6105
G1 X209.128 Y181.964 E48.6932
G1 X208.950 Y181.501 E48.7756
G1 X208.708 Y181.069 E48.8580
G1 X208.442 Y180.720 E48.9310
G1 X208.049 Y180.255 E49.0322
G1 X207.762 Y179.825 E49.1182
G1 X207.520 Y179.354 E49.2063
G1 X207.390 Y179.026 E49.2649
G1 X207.244 Y178.526 E49.3516
G1 X207.095 Y177.842 E49.4680
G1 X206.915 Y177.378 E49.5507
G1 X206.670 Y176.945 E49.6335
G1 X206.199 Y176.352 E49.7594
G1 X205.997 Y176.059 E49.8186
G1 X205.434 Y175.021 E50.0150
G1 X205.131 Y174.625 E50.0979
G1 X204.775 Y174.279 E50.1804
G1 X204.373 Y173.989 E50.2629
G1 X203.467 Y173.510 E50.4333
G1 X202.922 Y173.116 E50.5451
G1 X202.547 Y172.765 E50.6306
G1 X202.311 Y172.497 E50.6900
G1 X201.921 Y171.933 E50.8040
G1 X201.680 Y171.468 E50.8911
G1 X201.546 Y171.135 E50.9508
G1 X201.400 Y170.633 E51.0377
G1 X201.296 Y169.973 E51.1488
G1 X201.277 Y169.538 E51.2212
G1 X201.276 Y168.499 E51.3940
G1 X201.241 Y168.019 E51.4741
G1 X201.132 Y167.534 E51.5567
G1 X200.954 Y167.070 E51.6394
G1 X200.711 Y166.639 E51.7217
G1 X200.407 Y166.245 E51.8044
G1 X200.046 Y165.898 E51.8877
G1 X199.047 Y165.218 E52.0887
G1 X198.547 Y164.765 E52.2009
G1 X198.307 Y164.492 E52.2613
G1 X198.002 Y164.066 E52.3484
G1 X197.427 Y163.011 E52.5483
G1 X197.122 Y162.615 E52.6314
G1 X196.765 Y162.271 E52.7138
G1 X196.360 Y161.981 E52.7967
G1 X195.808 Y161.700 E52.8997
G1 X195.330 Y161.422 E52.9916
G1 X194.926 Y161.120 E53.0755
G1 X194.547 Y160.765 E53.1619
G1 X194.307 Y160.492 E53.2223
G1 X194.002 Y160.066 E53.3095
G1 X193.427 Y159.011 E53.5093
G1 X193.122 Y158.615 E53.5924
G1 X192.765 Y158.271 E53.6748
G1 X192.363 Y157.983 E53.7571
G1 X191.462 Y157.507 E53.9265
G1 X191.053 Y157.223 E54.0093
G1 X190.651 Y156.870 E54.0983
G1 X190.303 Y156.487 E54.1844
G1 X190.004 Y156.069 E54.2698
G1 X189.748 Y155.613 E54.3568
G1 X189.498 Y154.990 E54.4684
G1 X189.367 Y154.480 E54.5560
G1 X189.296 Y153.976 E54.6407
G1 X189.277 Y153.538 E54.7136
G1 X189.276 Y152.499 E54.8863
G1 X189.241 Y152.019 E54.9664
G1 X189.132 Y151.534 E55.0490
G1 X188.954 Y151.070 E55.1317
G1 X188.711 Y150.639 E55.2140
G1 X188.407 Y150.245 E55.2967
G1 X188.046 Y149.898 E55.3800
G1 X187.047 Y149.218 E55.5810
G1 X186.545 Y148.763 E55.6936
G1 X186.307 Y148.492 E55.7536
G1 X186.002 Y148.066 E55.8408
G1 X185.427 Y147.011 E56.0406
G1 X185.122 Y146.615 E56.1237
G1 X184.765 Y146.271 E56.2061
G1 X184.363 Y145.983 E56.2884
G1 X183.467 Y145.510 E56.4569
G1 X182.921 Y145.115 E56.5689
G1 X182.552 Y144.770 E56.6530
G1 X182.300 Y144.482 E56.7166
G1 X181.997 Y144.060 E56.8030
G1 X181.699 Y143.588 E56.8958
G1 X181.378 Y143.212 E56.9780
G1 X181.005 Y142.884 E57.0606
G1 X180.587 Y142.614 E57.1434
G1 X180.136 Y142.409 E57.2258
G1 X179.653 Y142.269 E57.3094
G1 X178.979 Y142.198 E57.4221
G1 X177.925 Y142.197 E57.5974
G1 X177.438 Y142.171 E57.6785
G1 X176.933 Y142.093 E57.7635
G1 X176.260 Y141.898 E57.8800
G1 X175.794 Y141.693 E57.9647
G1 X175.344 Y141.430 E58.0513
G1 X174.923 Y141.116 E58.1387
G1 X174.657 Y140.877 E58.1982
G1 X174.219 Y140.379 E58.3084
G1 X173.683 Y139.568 E58.4701
G1 X173.361 Y139.195 E58.5521
G1 X172.985 Y138.870 E58.6347
G1 X172.566 Y138.604 E58.7172
G1 X172.114 Y138.401 E58.7996
G1 X171.630 Y138.265 E58.8832
G1 X170.978 Y138.198 E58.9922
G1 X169.925 Y138.197 E59.1674
G1 X169.438 Y138.171 E59.2485
G1 X168.933 Y138.093 E59.3334
G1 X168.260 Y137.898 E59.4500
G1 X167.794 Y137.693 E59.5346
G1 X167.344 Y137.430 E59.6213
G1 X166.923 Y137.116 E59.7087
G1 X166.657 Y136.877 E59.7681
G1 X166.215 Y136.374 E59.8795
G1 X165.676 Y135.561 E60.0417
G1 X165.352 Y135.189 E60.1237
G1 X164.975 Y134.866 E60.2063
G1 X164.554 Y134.602 E60.2889
G1 X164.101 Y134.401 E60.3713
G1 X163.618 Y134.267 E60.4547
G1 X162.977 Y134.204 E60.5618
G1 X93.966 Y134.204 E72.0384
G1 X93.474 Y134.179 E72.1203
G1 X92.981 Y134.107 E72.2032
G1 X92.412 Y133.953 E72.3012
G1 X92.086 Y133.830 E72.3591
G1 X91.397 Y133.524 E72.4845
G1 X90.913 Y133.398 E72.5677
G1 X90.420 Y133.343 E72.6502
G1 X89.923 Y133.361 E72.7329
G1 X89.426 Y133.453 E72.8170
G1 X88.209 Y133.936 E73.0347
G1 X87.579 Y134.112 E73.1435
G1 X87.114 Y134.179 E73.2216
G1 X86.637 Y134.204 E73.3010
G1 X81.836 Y134.194 E74.0995
G1 X81.260 Y134.151 E74.1955
G1 X80.930 Y134.094 E74.2512
G1 X80.264 Y133.900 E74.3666
G1 X79.796 Y133.694 E74.4516
G1 X79.338 Y133.428 E74.5397
G1 X78.915 Y133.110 E74.6277
G1 X78.661 Y132.881 E74.6846
G1 X78.207 Y132.363 E74.7991
G1 X77.920 Y131.936 E74.8847
G1 X77.741 Y131.603 E74.9475
G1 X77.545 Y131.133 E75.0322
G1 X77.401 Y130.644 E75.1170
G1 X77.294 Y129.959 E75.2323
G1 X77.276 Y129.532 E75.3034
G1 X77.278 Y124.834 E76.0846
G1 X77.321 Y124.174 E76.1946
G1 X77.420 Y123.657 E76.2822
G1 X77.576 Y123.153 E76.3699
G1 X77.708 Y122.838 E76.4267
G1 X78.043 Y122.239 E76.5408
G1 X78.358 Y121.818 E76.6283
G1 X78.701 Y121.450 E76.7119
G1 X79.103 Y121.107 E76.7998
G1 X79.534 Y120.818 E76.8861
G1 X79.990 Y120.580 E76.9717
G1 X80.484 Y120.392 E77.0596
G1 X80.982 Y120.263 E77.1451
G1 X81.507 Y120.189 E77.2333
G1 X82.341 Y120.127 E77.3724
G1 X82.827 Y120.007 E77.4556
G1 X83.286 Y119.819 E77.5381
G1 X83.713 Y119.568 E77.6205
G1 X84.100 Y119.256 E77.7031
G1 X84.437 Y118.891 E77.7858
G1 X84.717 Y118.480 E77.8685
G1 X84.934 Y118.033 E77.9511
G1 X85.084 Y117.558 E78.0339
G1 X85.168 Y116.985 E78.1302
G1 X85.195 Y116.677 E78.1817
G1 X85.293 Y116.162 E78.2688
G1 X85.448 Y115.662 E78.3559
G1 X85.581 Y115.345 E78.4131
G1 X85.916 Y114.744 E78.5275
G1 X86.231 Y114.323 E78.6149
G1 X86.574 Y113.955 E78.6986
G1 X86.903 Y113.674 E78.7705
G0 F600 X86.979 Y113.610
G1 F2100 E77.1705
M204 S700.00
M205 X7.00 Y7.00
G0 F7200 X79.992 Y120.940
M204 S800.00
M205 X10.00 Y10.00
G1 F1800 E78.7805
G1 F600 X79.992 Y133.430 E80.8576
G1 X80.373 Y133.598 E80.9269
G1 X81.004 Y133.782 E81.0362
G1 X81.296 Y133.832 E81.0855
G1 X81.850 Y133.874 E81.1778
G1 X82.416 Y133.875 E81.2720
G1 X82.416 Y120.437 E83.5067
G1 X82.929 Y120.311 E83.5946
G1 X83.429 Y120.106 E83.6844
G1 X83.896 Y119.832 E83.7745
