;Sliced by ideaMaker 4.2.3.5600, 2022-03-15 15:22:20 UTC+0900
;Dimension: 315.000 315.000 300.000 0.400
;Plate Shape: 0
;Origin Center: 0
;Extruder Offset #1: 25.000 0.000
;Filament Diameter #1: 1.750
;Filament Diameter #2: 1.750
;Filament Compensation #1: 100.00
;Filament Compensation #2: 90.00
;Filament Density #1: 1240.00
;Filament Density #2: 1240.00
;Filament Type #1: PLA
;Filament Type #2: 
;Filament Name #1: [Raise3D] PLA 1.75mm
;Filament Name #2: 
;Firmware: Marlin
;Bounding Box: 84.391 231.224 112.430 207.262 0.000 19.990
;Model Gap: 0.140
M221 T0 S100.00
M140 S65.00
M104 T0 S210.00
M109 T0 S210.00
T0
M190 S65.00
;start
G21
M107
G28 X0 Y0 Z0
G91
G1 Z-10 F1000
G90
G28 Z F10
G1 X0 Y5 F4000
G1 Z1 F1300
G92 E0
G1 Y35 F100 E30 F50
G92 E0
G1 F900
;end of Start GCode
;TOTAL_NUM: 1
;PRINTING_TIME: 0
;REMAINING_TIME: 3559
M106 S0
;LAYER:-2
;Z:0.500
;HEIGHT:0.500
;PRINTING: NON-OBJECT
;PRINTING_ID: -1
G1 F2100 E-1.6000
M204 S700.00
M205 X7.00 Y7.00
G0 F7200 X86.619 Y113.771
G0 F1500 Z0.500
M204 S800.00
M205 X10.00 Y10.00
;TYPE:RAFT
;WIDTH:0.800
G1 F1800 E0.0100
G1 F600 X86.906 Y113.570 E0.0683
G1 X87.507 Y113.244 E0.1820
G1 X87.997 Y113.058 E0.2691
G1 X88.499 Y112.928 E0.3554
G1 X88.864 Y112.871 E0.4168
G1 X89.358 Y112.838 E0.4991
G1 X91.680 Y112.837 E0.8853
G1 X92.340 Y112.880 E0.9953
G1 X92.861 Y112.980 E1.0835
G1 X93.637 Y113.192 E1.2173
G1 X94.244 Y113.249 E1.3187
G1 X94.809 Y113.276 E1.4127
G1 X95.333 Y113.355 E1.5009
G1 X95.831 Y113.491 E1.5867
G1 X96.619 Y113.773 E1.7259
G1 X97.112 Y113.860 E1.8092
G1 X97.607 Y113.875 E1.8915
G1 X98.100 Y113.817 E1.9741
G1 X98.586 Y113.687 E2.0577
G1 X99.701 Y113.164 E2.2625
G1 X100.455 Y112.936 E2.3935
G1 X100.978 Y112.855 E2.4815
G1 X101.450 Y112.830 E2.5602
G1 X178.129 Y112.830 E15.3119
G1 X178.627 Y112.855 E15.3948
G1 X179.065 Y112.916 E15.4684
G1 X179.518 Y113.029 E15.5460
G1 X180.017 Y113.208 E15.6342
G1 X180.479 Y113.436 E15.7199
G1 X180.916 Y113.715 E15.8061
G1 X181.327 Y114.052 E15.8945
G1 X181.682 Y114.416 E15.9790
G1 X182.006 Y114.833 E16.0669
G1 X182.479 Y115.558 E16.2108
G1 X182.820 Y115.926 E16.2942
G1 X183.206 Y116.236 E16.3766
G1 X183.635 Y116.488 E16.4593
G1 X184.095 Y116.674 E16.5418
G1 X184.579 Y116.791 E16.6246
G1 X185.117 Y116.836 E16.7144
G1 X186.171 Y116.837 E16.8897
G1 X186.658 Y116.863 E16.9708
G1 X187.163 Y116.941 E17.0558
G1 X187.836 Y117.136 E17.1723
G1 X188.307 Y117.343 E17.2579
G1 X188.625 Y117.522 E17.3186
G1 X189.039 Y117.810 E17.4024
G1 X189.443 Y118.162 E17.4915
G1 X189.877 Y118.655 E17.6008
G1 X190.413 Y119.466 E17.7624
G1 X190.735 Y119.839 E17.8444
G1 X191.111 Y120.164 E17.9270
G1 X191.530 Y120.430 E18.0096
G1 X191.982 Y120.633 E18.0920
G1 X192.466 Y120.769 E18.1756
G1 X193.118 Y120.836 E18.2846
G1 X194.171 Y120.837 E18.4597
G1 X194.658 Y120.863 E18.5408
G1 X195.163 Y120.941 E18.6258
G1 X195.836 Y121.136 E18.7423
G1 X196.307 Y121.343 E18.8278
G1 X196.613 Y121.515 E18.8862
G1 X197.176 Y121.921 E19.0016
G1 X197.548 Y122.268 E19.0862
G1 X197.785 Y122.537 E19.1459
G1 X198.179 Y123.105 E19.2608
G1 X198.673 Y124.027 E19.4348
G1 X198.980 Y124.424 E19.5182
G1 X199.338 Y124.768 E19.6008
G1 X199.742 Y125.056 E19.6833
G1 X200.627 Y125.522 E19.8496
G1 X201.048 Y125.815 E19.9349
G1 X201.544 Y126.264 E20.0462
G1 X201.891 Y126.673 E20.1354
G1 X202.092 Y126.964 E20.1942
G1 X202.669 Y128.023 E20.3948
G1 X202.974 Y128.419 E20.4779
G1 X203.331 Y128.763 E20.5603
G1 X203.736 Y129.053 E20.6432
G1 X204.288 Y129.334 E20.7462
G1 X204.766 Y129.612 E20.8382
G1 X205.170 Y129.914 E20.9220
G1 X205.549 Y130.269 E21.0084
G1 X205.789 Y130.542 E21.0688
G1 X206.094 Y130.968 E21.1560
G1 X206.669 Y132.023 E21.3558
G1 X206.974 Y132.419 E21.4389
G1 X207.331 Y132.763 E21.5214
G1 X207.733 Y133.051 E21.6036
G1 X208.632 Y133.526 E21.7727
G1 X209.048 Y133.815 E21.8569
G1 X209.544 Y134.264 E21.9682
G1 X209.888 Y134.671 E22.0568
G1 X210.174 Y135.097 E22.1421
G1 X210.346 Y135.417 E22.2026
G1 X210.598 Y136.044 E22.3149
G1 X210.729 Y136.554 E22.4025
G1 X210.799 Y137.046 E22.4851
G1 X210.819 Y137.497 E22.5602
G1 X210.820 Y138.535 E22.7328
G1 X210.855 Y139.015 E22.8129
G1 X210.964 Y139.500 E22.8955
G1 X211.142 Y139.964 E22.9782
G1 X211.385 Y140.395 E23.0605
G1 X211.689 Y140.789 E23.1432
G1 X212.050 Y141.136 E23.2265
G1 X213.049 Y141.816 E23.4275
G1 X213.549 Y142.269 E23.5397
G1 X213.789 Y142.542 E23.6001
G1 X214.094 Y142.968 E23.6872
G1 X214.669 Y144.023 E23.8871
G1 X214.974 Y144.419 E23.9702
G1 X215.331 Y144.763 E24.0526
G1 X215.736 Y145.053 E24.1355
G1 X216.288 Y145.334 E24.2385
G1 X216.766 Y145.612 E24.3304
G1 X217.170 Y145.914 E24.4143
G1 X217.549 Y146.269 E24.5007
G1 X217.789 Y146.542 E24.5611
G1 X218.093 Y146.966 E24.6479
G1 X218.669 Y148.023 E24.8481
G1 X218.974 Y148.419 E24.9312
G1 X219.331 Y148.763 E25.0136
G1 X219.733 Y149.051 E25.0959
G1 X220.634 Y149.527 E25.2653
G1 X221.048 Y149.815 E25.3492
G1 X221.544 Y150.264 E25.4605
G1 X221.888 Y150.671 E25.5491
G1 X222.173 Y151.095 E25.6341
G1 X222.412 Y151.559 E25.7209
G1 X222.601 Y152.052 E25.8087
G1 X222.696 Y152.398 E25.8683
G1 X222.799 Y153.049 E25.9779
G1 X222.819 Y153.497 E26.0525
G1 X222.820 Y154.535 E26.2251
G1 X222.855 Y155.015 E26.3052
G1 X222.964 Y155.500 E26.3878
G1 X223.142 Y155.964 E26.4705
G1 X223.385 Y156.395 E26.5528
G1 X223.689 Y156.789 E26.6355
G1 X224.050 Y157.136 E26.7188
G1 X225.045 Y157.813 E26.9189
G1 X225.444 Y158.163 E27.0072
G1 X225.888 Y158.670 E27.1193
G1 X226.173 Y159.095 E27.2044
G1 X226.416 Y159.566 E27.2925
G1 X226.550 Y159.899 E27.3522
G1 X226.699 Y160.409 E27.4406
G1 X226.849 Y161.102 E27.5585
G1 X227.031 Y161.567 E27.6415
G1 X227.279 Y161.998 E27.7242
G1 X227.739 Y162.575 E27.8469
G1 X227.943 Y162.872 E27.9069
G1 X228.193 Y163.321 E27.9923
G1 X228.448 Y163.959 E28.1066
G1 X228.722 Y164.998 E28.2853
G1 X228.929 Y165.454 E28.3686
G1 X229.197 Y165.872 E28.4511
G1 X229.787 Y166.541 E28.5995
G1 X230.088 Y166.957 E28.6849
G1 X230.347 Y167.417 E28.7727
G1 X230.544 Y167.882 E28.8566
G1 X230.690 Y168.365 E28.9405
G1 X230.753 Y168.672 E28.9927
G1 X230.824 Y169.552 E29.1395
G1 X230.817 Y202.210 E34.5705
G1 X230.792 Y202.700 E34.6521
G1 X230.675 Y203.377 E34.7664
G1 X230.519 Y203.878 E34.8536
G1 X230.387 Y204.193 E34.9104
G1 X230.136 Y204.663 E34.9991
G1 X229.734 Y205.222 E35.1136
G1 X229.386 Y205.592 E35.1980
G1 X229.109 Y205.835 E35.2593
G1 X228.693 Y206.135 E35.3446
G1 X228.105 Y206.453 E35.4558
G1 X227.607 Y206.644 E35.5445
G1 X227.110 Y206.772 E35.6298
G1 X226.745 Y206.829 E35.6913
G1 X226.251 Y206.862 E35.7736
G1 X221.344 Y206.860 E36.5896
G1 X220.794 Y206.820 E36.6813
G1 X220.277 Y206.721 E36.7689
G1 X219.777 Y206.566 E36.8559
G1 X219.460 Y206.433 E36.9131
G1 X218.854 Y206.094 E37.0286
G1 X218.430 Y205.779 E37.1164
G1 X218.182 Y205.554 E37.1721
G1 X217.818 Y205.156 E37.2618
G1 X217.518 Y204.739 E37.3472
G1 X216.936 Y203.674 E37.5491
G1 X216.630 Y203.278 E37.6323
G1 X216.272 Y202.934 E37.7148
G1 X215.871 Y202.647 E37.7969
G1 X214.977 Y202.173 E37.9651
G1 X214.546 Y201.873 E38.0525
G1 X214.268 Y201.636 E38.1132
G1 X213.812 Y201.147 E38.2244
G1 X213.503 Y200.716 E38.3126
G1 X213.327 Y200.411 E38.3712
G1 X213.119 Y199.954 E38.4547
G1 X212.890 Y199.198 E38.5860
G1 X212.809 Y198.677 E38.6737
G1 X212.785 Y198.264 E38.7425
G1 X212.791 Y189.498 E40.2003
G1 X212.834 Y188.838 E40.3103
G1 X212.934 Y188.321 E40.3979
G1 X213.091 Y187.817 E40.4856
G1 X213.296 Y187.352 E40.5702
G1 X213.557 Y186.903 E40.6565
G1 X213.876 Y186.477 E40.7450
G1 X214.214 Y186.115 E40.8274
G1 X214.614 Y185.776 E40.9146
G1 X215.414 Y185.247 E41.0741
G1 X215.787 Y184.925 E41.1560
G1 X216.112 Y184.549 E41.2387
G1 X216.378 Y184.130 E41.3212
G1 X216.581 Y183.678 E41.4036
G1 X216.717 Y183.194 E41.4872
G1 X216.784 Y182.538 E41.5969
G1 X216.784 Y175.595 E42.7515
G1 X216.749 Y175.115 E42.8315
G1 X216.641 Y174.630 E42.9142
G1 X216.463 Y174.167 E42.9967
G1 X216.221 Y173.735 E43.0790
G1 X215.955 Y173.386 E43.1520
G1 X215.562 Y172.921 E43.2532
G1 X215.275 Y172.491 E43.3392
G1 X215.033 Y172.020 E43.4273
G1 X214.903 Y171.692 E43.4859
G1 X214.757 Y171.192 E43.5726
G1 X214.608 Y170.508 E43.6890
G1 X214.428 Y170.044 E43.7718
G1 X214.183 Y169.611 E43.8545
G1 X213.712 Y169.018 E43.9804
G1 X213.510 Y168.725 E44.0396
G1 X212.947 Y167.687 E44.2360
G1 X212.644 Y167.291 E44.3189
G1 X212.288 Y166.945 E44.4015
G1 X211.886 Y166.655 E44.4839
G1 X210.980 Y166.176 E44.6543
G1 X210.434 Y165.781 E44.7664
G1 X210.059 Y165.431 E44.8517
G1 X209.824 Y165.163 E44.9110
G1 X209.434 Y164.599 E45.0250
G1 X209.193 Y164.134 E45.1121
G1 X209.059 Y163.801 E45.1718
G1 X208.912 Y163.295 E45.2594
G1 X208.809 Y162.639 E45.3699
G1 X208.790 Y162.204 E45.4423
G1 X208.789 Y161.165 E45.6151
G1 X208.754 Y160.685 E45.6951
G1 X208.645 Y160.200 E45.7778
G1 X208.467 Y159.736 E45.8604
G1 X208.224 Y159.305 E45.9427
G1 X207.920 Y158.911 E46.0255
G1 X207.559 Y158.564 E46.1087
G1 X206.560 Y157.884 E46.3097
G1 X206.065 Y157.436 E46.4207
G1 X205.812 Y157.147 E46.4846
G1 X205.515 Y156.732 E46.5695
G1 X204.940 Y155.677 E46.7693
G1 X204.635 Y155.281 E46.8524
G1 X204.278 Y154.937 E46.9349
G1 X203.873 Y154.647 E47.0177
G1 X203.321 Y154.366 E47.1207
G1 X202.843 Y154.088 E47.2127
G1 X202.439 Y153.786 E47.2965
G1 X202.060 Y153.431 E47.3829
G1 X201.820 Y153.158 E47.4433
G1 X201.515 Y152.732 E47.5305
G1 X200.940 Y151.677 E47.7303
G1 X200.635 Y151.281 E47.8134
G1 X200.278 Y150.937 E47.8959
G1 X199.876 Y150.649 E47.9781
G1 X198.975 Y150.173 E48.1476
G1 X198.566 Y149.889 E48.2304
G1 X198.163 Y149.535 E48.3196
G1 X197.812 Y149.148 E48.4065
G1 X197.517 Y148.735 E48.4909
G1 X197.261 Y148.279 E48.5778
G1 X197.011 Y147.656 E48.6895
G1 X196.880 Y147.146 E48.7770
G1 X196.809 Y146.642 E48.8617
G1 X196.790 Y146.203 E48.9347
G1 X196.789 Y145.165 E49.1074
G1 X196.754 Y144.685 E49.1874
G1 X196.645 Y144.200 E49.2701
G1 X196.467 Y143.736 E49.3527
G1 X196.224 Y143.305 E49.4350
G1 X195.920 Y142.911 E49.5178
G1 X195.559 Y142.564 E49.6010
G1 X194.560 Y141.884 E49.8020
G1 X194.065 Y141.436 E49.9130
G1 X193.812 Y141.147 E49.9769
G1 X193.515 Y140.732 E50.0618
G1 X192.940 Y139.677 E50.2616
G1 X192.635 Y139.281 E50.3447
G1 X192.278 Y138.937 E50.4272
G1 X191.876 Y138.649 E50.5094
G1 X190.980 Y138.176 E50.6779
G1 X190.434 Y137.781 E50.7900
G1 X190.059 Y137.431 E50.8753
G1 X189.820 Y137.158 E50.9356
G1 X189.510 Y136.726 E51.0240
G1 X189.212 Y136.254 E51.1169
G1 X188.891 Y135.878 E51.1991
G1 X188.518 Y135.550 E51.2817
G1 X188.100 Y135.280 E51.3644
G1 X187.649 Y135.075 E51.4468
G1 X187.166 Y134.935 E51.5304
G1 X186.492 Y134.864 E51.6431
G1 X185.438 Y134.863 E51.8184
G1 X184.951 Y134.837 E51.8995
G1 X184.443 Y134.759 E51.9850
G1 X183.935 Y134.621 E52.0725
G1 X183.453 Y134.430 E52.1588
G1 X182.859 Y134.098 E52.2719
G1 X182.557 Y133.880 E52.3339
G1 X182.170 Y133.543 E52.4192
G1 X181.732 Y133.045 E52.5295
G1 X181.196 Y132.234 E52.6912
G1 X180.874 Y131.861 E52.7731
G1 X180.498 Y131.536 E52.8558
G1 X180.079 Y131.270 E52.9383
G1 X179.627 Y131.067 E53.0207
G1 X179.143 Y130.931 E53.1043
G1 X178.491 Y130.864 E53.2133
G1 X177.438 Y130.863 E53.3884
G1 X176.951 Y130.837 E53.4695
G1 X176.443 Y130.759 E53.5550
G1 X175.935 Y130.621 E53.6425
G1 X175.453 Y130.430 E53.7288
G1 X174.860 Y130.098 E53.8418
G1 X174.436 Y129.782 E53.9297
G1 X174.170 Y129.543 E53.9892
G1 X173.728 Y129.040 E54.1005
G1 X173.189 Y128.227 E54.2628
G1 X172.865 Y127.855 E54.3448
G1 X172.488 Y127.532 E54.4274
G1 X172.067 Y127.268 E54.5100
G1 X171.614 Y127.067 E54.5924
G1 X171.131 Y126.933 E54.6758
G1 X170.490 Y126.870 E54.7829
G1 X101.479 Y126.870 E66.2595
G1 X100.987 Y126.845 E66.3414
G1 X100.494 Y126.773 E66.4242
G1 X99.925 Y126.619 E66.5223
G1 X99.599 Y126.496 E66.5802
G1 X98.910 Y126.190 E66.7056
G1 X98.426 Y126.064 E66.7888
G1 X97.933 Y126.009 E66.8713
G1 X97.436 Y126.027 E66.9540
G1 X96.939 Y126.119 E67.0380
G1 X95.722 Y126.602 E67.2558
G1 X95.096 Y126.777 E67.3639
G1 X94.502 Y126.856 E67.4635
G1 X94.137 Y126.870 E67.5243
G1 X89.436 Y126.863 E68.3060
G1 X88.946 Y126.837 E68.3876
G1 X88.437 Y126.759 E68.4733
G1 X87.927 Y126.620 E68.5612
G1 X87.443 Y126.426 E68.6479
G1 X86.848 Y126.092 E68.7614
G1 X86.429 Y125.777 E68.8485
G1 X86.066 Y125.438 E68.9311
G1 X85.820 Y125.157 E68.9932
G1 X85.509 Y124.725 E69.0818
G1 X85.253 Y124.268 E69.1689
G1 X85.058 Y123.800 E69.2532
G1 X84.877 Y123.137 E69.3675
G1 X84.825 Y122.803 E69.4237
G1 X84.792 Y122.308 E69.5062
G1 X84.791 Y117.475 E70.3099
G1 X84.817 Y116.986 E70.3914
G1 X84.896 Y116.481 E70.4764
G1 X85.033 Y115.981 E70.5626
G1 X85.301 Y115.342 E70.6778
G1 X85.466 Y115.045 E70.7343
G1 X85.763 Y114.617 E70.8210
G1 X86.214 Y114.116 E70.9331
G1 X86.543 Y113.835 E71.0050
G0 F600 X86.619 Y113.771
G1 F2100 E69.4050
M204 S700.00
M205 X7.00 Y7.00
G0 F7200 X87.264 Y125.958
M204 S800.00
M205 X10.00 Y10.00
G1 F1800 E71.0150
G1 F600 X87.264 Y113.740 E73.0469
G1 X87.644 Y113.534 E73.1188
G1 X88.097 Y113.363 E73.1993
G1 X88.563 Y113.242 E73.2793
G1 X88.898 Y113.189 E73.3358
G1 X89.367 Y113.158 E73.4139
G1 X89.688 Y113.157 E73.4673
G1 X89.688 Y126.543 E75.6934
G1 X92.112 Y126.546 E76.0965
G1 X92.112 Y113.186 E78.3183
G1 X92.297 Y113.197 E78.3491
G1 X92.789 Y113.292 E78.4324
G1 X93.577 Y113.507 E78.5683
G1 X94.223 Y113.568 E78.6762
G1 X94.536 Y113.584 E78.7283
G1 X94.536 Y126.529 E80.8811
G1 X95.036 Y126.462 E80.9650
G1 X95.616 Y126.300 E81.0651
G1 X96.846 Y125.812 E81.2852
G1 X96.960 Y125.791 E81.3044
G1 X96.960 Y114.158 E83.2390
G1 X97.081 Y114.179 E83.2594
G1 X97.624 Y114.196 E83.3498
G1 X98.158 Y114.133 E83.4392
G1 X98.698 Y113.988 E83.5322
G1 X99.384 Y113.665 E83.6583
G1 X99.384 Y126.049 E85.7178
G1 X99.730 Y126.203 E85.7807
G1 X100.020 Y126.313 E85.8323
G1 X100.558 Y126.458 E85.9250
G1 X101.026 Y126.527 E86.0037
G1 X101.377 Y126.545 E86.0621
G0 F600 X101.477 Y126.550
M204 S700.00
M205 X7.00 Y7.00
G0 F7200 X101.808 Y126.550
M204 S800.00
M205 X10.00 Y10.00
G1 F600 X101.808 Y113.150 E88.2905
G1 X104.232 Y113.150 E88.6936
G1 X104.232 Y126.550 E90.9221
G1 X106.656 Y126.550 E91.3252
G1 X106.656 Y113.150 E93.5536
G1 X109.080 Y113.150 E93.9567
G1 X109.080 Y126.550 E96.1852
G1 X111.504 Y126.550 E96.5883
G1 X111.504 Y113.150 E98.8167
G1 X113.928 Y113.150 E99.2198
G1 X113.928 Y126.550 E101.4482
G1 X116.352 Y126.550 E101.8514
G1 X116.352 Y113.150 E104.0798
G1 X118.776 Y113.150 E104.4829
G1 X118.776 Y126.550 E106.7113
G1 X121.200 Y126.550 E107.1144
G1 X121.200 Y113.150 E109.3429
G1 X123.624 Y113.150 E109.7460
G1 X123.624 Y126.550 E111.9744
G1 X126.048 Y126.550 E112.3775
G1 X126.048 Y113.150 E114.6059
G1 X128.472 Y113.150 E115.0091
G1 X128.472 Y126.550 E117.2375
G1 X130.896 Y126.550 E117.6406
G1 X130.896 Y113.150 E119.8690
G1 X133.320 Y113.150 E120.2721
G1 X133.320 Y126.550 E122.5006
G1 X135.744 Y126.550 E122.9037
G1 X135.744 Y113.150 E125.1321
G1 X138.168 Y113.150 E125.5352
G1 X138.168 Y126.550 E127.7637
G1 X140.592 Y126.550 E128.1668
G1 X140.592 Y113.150 E130.3952
G1 X143.016 Y113.150 E130.7983
G1 X143.016 Y126.550 E133.0267
G1 X145.440 Y126.550 E133.4299
G1 X145.440 Y113.150 E135.6583
G1 X147.864 Y113.150 E136.0614
G1 X147.864 Y126.550 E138.2898
G1 X150.288 Y126.550 E138.6929
G1 X150.288 Y113.150 E140.9214
G1 X152.712 Y113.150 E141.3245
G1 X152.712 Y126.550 E143.5529
G1 X155.136 Y126.550 E143.9560
G1 X155.136 Y113.150 E146.1845
G1 X157.560 Y113.150 E146.5876
G1 X157.560 Y126.550 E148.8160
G1 X159.984 Y126.550 E149.2191
G1 X159.984 Y113.150 E151.4475
G1 X162.408 Y113.150 E151.8506
G1 X162.408 Y126.550 E154.0791
G1 X164.832 Y126.550 E154.4822
G1 X164.832 Y113.150 E156.7106
G1 X167.256 Y113.150 E157.1137
G1 X167.256 Y126.550 E159.3422
G1 X169.680 Y126.550 E159.7453
G1 X169.680 Y113.150 E161.9737
