;Sliced by ideaMaker 4.2.3.5600, 2022-03-15 15:21:32 UTC+0900
;Dimension: 215.000 215.000 200.000 0.400
;Plate Shape: 0
;Origin Center: 0
;Extruder Offset #1: 25.000 0.000
;Filament Diameter #1: 1.750
;Filament Diameter #2: 1.750
;Filament Compensation #1: 100.00
;Filament Compensation #2: 90.00
;Filament Density #1: 1240.00
;Filament Density #2: 1240.00
;Filament Type #1: PLA
;Filament Type #2: 
;Filament Name #1: [Raise3D] PLA 1.75mm
;Filament Name #2: 
;Firmware: Marlin
;Bounding Box: 34.391 181.224 62.430 157.262 0.000 19.990
;Model Gap: 0.140
M221 T0 S100.00
M140 S65.00
M104 T0 S210.00
M109 T0 S210.00
T0
M190 S65.00
;start
G21
M107
G28 X0 Y0 Z0
G91
G1 Z-10 F1000
G90
G28 Z F10
G1 X0 Y5 F4000
G1 Z1 F1300
G92 E0
G1 Y35 F100 E30 F50
G92 E0
G1 F900
;end of Start GCode
;TOTAL_NUM: 1
;PRINTING_TIME: 0
;REMAINING_TIME: 4061
M106 S0
;LAYER:-2
;Z:0.500
;HEIGHT:0.500
;PRINTING: NON-OBJECT
;PRINTING_ID: -1
G1 F2100 E-6.2000
M204 S700.00
M205 X7.00 Y7.00
G0 F7200 X36.906 Y63.570
G0 F1500 Z0.500
M204 S800.00
M205 X10.00 Y10.00
;TYPE:RAFT
;WIDTH:0.800
G1 F1800 E0.0100
G1 F600 X37.507 Y63.244 E0.1237
G1 X37.997 Y63.058 E0.2109
G1 X38.499 Y62.928 E0.2971
G1 X38.864 Y62.871 E0.3585
G1 X39.358 Y62.838 E0.4409
G1 X41.680 Y62.837 E0.8270
G1 X42.340 Y62.880 E0.9370
G1 X42.861 Y62.980 E1.0252
G1 X43.637 Y63.192 E1.1590
G1 X44.244 Y63.249 E1.2604
G1 X44.809 Y63.276 E1.3545
G1 X45.333 Y63.355 E1.4426
G1 X45.831 Y63.491 E1.5284
G1 X46.619 Y63.773 E1.6676
G1 X47.112 Y63.860 E1.7509
G1 X47.607 Y63.875 E1.8332
G1 X48.100 Y63.817 E1.9158
G1 X48.586 Y63.687 E1.9995
G1 X49.701 Y63.164 E2.2043
G1 X50.455 Y62.936 E2.3353
G1 X50.978 Y62.855 E2.4233
G1 X51.450 Y62.830 E2.5019
G1 X128.129 Y62.830 E15.2537
G1 X128.627 Y62.855 E15.3366
G1 X129.065 Y62.916 E15.4101
G1 X129.518 Y63.029 E15.4878
G1 X130.017 Y63.208 E15.5759
G1 X130.479 Y63.436 E15.6616
G1 X130.916 Y63.715 E15.7478
G1 X131.327 Y64.052 E15.8362
G1 X131.682 Y64.416 E15.9208
G1 X132.006 Y64.833 E16.0086
G1 X132.479 Y65.558 E16.1525
G1 X132.820 Y65.926 E16.2360
G1 X133.206 Y66.236 E16.3183
G1 X133.635 Y66.488 E16.4010
G1 X134.095 Y66.674 E16.4836
G1 X134.579 Y66.791 E16.5664
G1 X135.117 Y66.836 E16.6562
G1 X136.171 Y66.837 E16.8314
G1 X136.658 Y66.863 E16.9125
G1 X137.163 Y66.941 E16.9975
G1 X137.836 Y67.136 E17.1140
G1 X138.307 Y67.343 E17.1996
G1 X138.625 Y67.522 E17.2603
G1 X139.039 Y67.810 E17.3442
G1 X139.443 Y68.162 E17.4333
G1 X139.877 Y68.655 E17.5425
G1 X140.413 Y69.466 E17.7042
G1 X140.735 Y69.839 E17.7861
G1 X141.111 Y70.164 E17.8688
G1 X141.530 Y70.430 E17.9513
G1 X141.982 Y70.633 E18.0337
G1 X142.466 Y70.769 E18.1173
G1 X143.118 Y70.836 E18.2263
G1 X144.171 Y70.837 E18.4014
G1 X144.658 Y70.863 E18.4825
G1 X145.163 Y70.941 E18.5675
G1 X145.836 Y71.136 E18.6840
G1 X146.307 Y71.343 E18.7696
G1 X146.613 Y71.515 E18.8279
G1 X147.176 Y71.921 E18.9434
G1 X147.548 Y72.268 E19.0280
G1 X147.785 Y72.537 E19.0876
G1 X148.179 Y73.105 E19.2026
G1 X148.673 Y74.027 E19.3765
G1 X148.980 Y74.424 E19.4600
G1 X149.338 Y74.768 E19.5425
G1 X149.742 Y75.056 E19.6250
G1 X150.627 Y75.522 E19.7914
G1 X151.048 Y75.815 E19.8767
G1 X151.544 Y76.264 E19.9879
G1 X151.891 Y76.673 E20.0771
G1 X152.092 Y76.964 E20.1360
G1 X152.669 Y78.023 E20.3365
G1 X152.974 Y78.419 E20.4196
G1 X153.331 Y78.763 E20.5021
G1 X153.736 Y79.053 E20.5849
G1 X154.288 Y79.334 E20.6879
G1 X154.766 Y79.612 E20.7799
G1 X155.170 Y79.914 E20.8638
G1 X155.549 Y80.269 E20.9501
G1 X155.789 Y80.542 E21.0106
G1 X156.094 Y80.968 E21.0977
G1 X156.669 Y82.023 E21.2975
G1 X156.974 Y82.419 E21.3806
G1 X157.331 Y82.763 E21.4631
G1 X157.733 Y83.051 E21.5453
G1 X158.632 Y83.526 E21.7144
G1 X159.048 Y83.815 E21.7987
G1 X159.544 Y84.264 E21.9099
G1 X159.888 Y84.671 E21.9985
G1 X160.174 Y85.097 E22.0839
G1 X160.346 Y85.417 E22.1443
G1 X160.598 Y86.044 E22.2567
G1 X160.729 Y86.554 E22.3442
G1 X160.799 Y87.046 E22.4269
G1 X160.819 Y87.497 E22.5019
G1 X160.820 Y88.535 E22.6746
G1 X160.855 Y89.015 E22.7546
G1 X160.964 Y89.500 E22.8373
G1 X161.142 Y89.964 E22.9199
G1 X161.385 Y90.395 E23.0022
G1 X161.689 Y90.789 E23.0850
G1 X162.050 Y91.136 E23.1682
G1 X163.049 Y91.816 E23.3692
G1 X163.549 Y92.269 E23.4814
G1 X163.789 Y92.542 E23.5419
G1 X164.094 Y92.968 E23.6290
G1 X164.669 Y94.023 E23.8288
G1 X164.974 Y94.419 E23.9119
G1 X165.331 Y94.763 E23.9944
G1 X165.736 Y95.053 E24.0772
G1 X166.288 Y95.334 E24.1802
G1 X166.766 Y95.612 E24.2722
G1 X167.170 Y95.914 E24.3561
G1 X167.549 Y96.269 E24.4424
G1 X167.789 Y96.542 E24.5029
G1 X168.093 Y96.966 E24.5896
G1 X168.669 Y98.023 E24.7898
G1 X168.974 Y98.419 E24.8729
G1 X169.331 Y98.763 E24.9554
G1 X169.733 Y99.051 E25.0376
G1 X170.634 Y99.527 E25.2071
G1 X171.048 Y99.815 E25.2909
G1 X171.544 Y100.264 E25.4022
G1 X171.888 Y100.671 E25.4908
G1 X172.173 Y101.095 E25.5758
G1 X172.412 Y101.559 E25.6626
G1 X172.601 Y102.052 E25.7504
G1 X172.696 Y102.398 E25.8101
G1 X172.799 Y103.049 E25.9197
G1 X172.819 Y103.497 E25.9942
G1 X172.820 Y104.535 E26.1669
G1 X172.855 Y105.015 E26.2469
G1 X172.964 Y105.500 E26.3296
G1 X173.142 Y105.964 E26.4122
G1 X173.385 Y106.395 E26.4945
G1 X173.689 Y106.789 E26.5773
G1 X174.050 Y107.136 E26.6605
G1 X175.045 Y107.813 E26.8607
G1 X175.444 Y108.163 E26.9489
G1 X175.888 Y108.670 E27.0610
G1 X176.173 Y109.095 E27.1461
G1 X176.416 Y109.566 E27.2342
G1 X176.550 Y109.899 E27.2939
G1 X176.699 Y110.409 E27.3823
G1 X176.849 Y111.102 E27.5002
G1 X177.031 Y111.567 E27.5833
G1 X177.279 Y111.998 E27.6660
G1 X177.739 Y112.575 E27.7887
G1 X177.943 Y112.872 E27.8486
G1 X178.193 Y113.321 E27.9341
G1 X178.448 Y113.959 E28.0483
G1 X178.722 Y114.998 E28.2270
G1 X178.929 Y115.454 E28.3103
G1 X179.197 Y115.872 E28.3929
G1 X179.787 Y116.541 E28.5412
G1 X180.088 Y116.957 E28.6266
G1 X180.347 Y117.417 E28.7144
G1 X180.544 Y117.882 E28.7984
G1 X180.690 Y118.365 E28.8823
G1 X180.753 Y118.672 E28.9344
G1 X180.824 Y119.552 E29.0812
G1 X180.817 Y152.210 E34.5123
G1 X180.792 Y152.700 E34.5939
G1 X180.675 Y153.377 E34.7081
G1 X180.519 Y153.878 E34.7954
G1 X180.387 Y154.193 E34.8522
G1 X180.136 Y154.663 E34.9408
G1 X179.734 Y155.222 E35.0553
G1 X179.386 Y155.592 E35.1398
G1 X179.109 Y155.835 E35.2010
G1 X178.693 Y156.135 E35.2863
G1 X178.105 Y156.453 E35.3975
G1 X177.607 Y156.644 E35.4862
G1 X177.110 Y156.772 E35.5715
G1 X176.745 Y156.829 E35.6330
G1 X176.251 Y156.862 E35.7153
G1 X171.344 Y156.860 E36.5314
G1 X170.794 Y156.820 E36.6231
G1 X170.277 Y156.721 E36.7106
G1 X169.777 Y156.566 E36.7977
G1 X169.460 Y156.433 E36.8548
G1 X168.854 Y156.094 E36.9703
G1 X168.430 Y155.779 E37.0581
G1 X168.182 Y155.554 E37.1138
G1 X167.818 Y155.156 E37.2035
G1 X167.518 Y154.739 E37.2890
G1 X166.936 Y153.674 E37.4908
G1 X166.630 Y153.278 E37.5740
G1 X166.272 Y152.934 E37.6566
G1 X165.871 Y152.647 E37.7386
G1 X164.977 Y152.173 E37.9069
G1 X164.546 Y151.873 E37.9942
G1 X164.268 Y151.636 E38.0549
G1 X163.812 Y151.147 E38.1661
G1 X163.503 Y150.716 E38.2543
G1 X163.327 Y150.411 E38.3129
G1 X163.119 Y149.954 E38.3964
G1 X162.890 Y149.198 E38.5278
G1 X162.809 Y148.677 E38.6154
G1 X162.785 Y148.264 E38.6842
G1 X162.791 Y139.498 E40.1420
G1 X162.834 Y138.838 E40.2520
G1 X162.934 Y138.321 E40.3396
G1 X163.091 Y137.817 E40.4274
G1 X163.296 Y137.352 E40.5119
G1 X163.557 Y136.903 E40.5983
G1 X163.876 Y136.477 E40.6868
G1 X164.214 Y136.115 E40.7691
G1 X164.614 Y135.776 E40.8563
G1 X165.414 Y135.247 E41.0158
G1 X165.787 Y134.925 E41.0978
G1 X166.112 Y134.549 E41.1804
G1 X166.378 Y134.130 E41.2629
G1 X166.581 Y133.678 E41.3453
G1 X166.717 Y133.194 E41.4290
G1 X166.784 Y132.538 E41.5386
G1 X166.784 Y125.595 E42.6932
G1 X166.749 Y125.115 E42.7733
G1 X166.641 Y124.630 E42.8559
G1 X166.463 Y124.167 E42.9384
G1 X166.221 Y123.735 E43.0207
G1 X165.955 Y123.386 E43.0937
G1 X165.562 Y122.921 E43.1950
G1 X165.275 Y122.491 E43.2809
G1 X165.033 Y122.020 E43.3690
G1 X164.903 Y121.692 E43.4277
G1 X164.757 Y121.192 E43.5143
G1 X164.608 Y120.508 E43.6307
G1 X164.428 Y120.044 E43.7135
G1 X164.183 Y119.611 E43.7962
G1 X163.712 Y119.018 E43.9222
G1 X163.510 Y118.725 E43.9813
G1 X162.947 Y117.687 E44.1777
G1 X162.644 Y117.291 E44.2606
G1 X162.288 Y116.945 E44.3432
G1 X161.886 Y116.655 E44.4256
G1 X160.980 Y116.176 E44.5961
G1 X160.434 Y115.781 E44.7081
G1 X160.059 Y115.431 E44.7934
G1 X159.824 Y115.163 E44.8527
G1 X159.434 Y114.599 E44.9667
G1 X159.193 Y114.134 E45.0538
G1 X159.059 Y113.801 E45.1135
G1 X158.912 Y113.295 E45.2012
G1 X158.809 Y112.639 E45.3116
G1 X158.790 Y112.204 E45.3840
G1 X158.789 Y111.165 E45.5568
G1 X158.754 Y110.685 E45.6368
G1 X158.645 Y110.200 E45.7195
G1 X158.467 Y109.736 E45.8021
G1 X158.224 Y109.305 E45.8844
G1 X157.920 Y108.911 E45.9672
G1 X157.559 Y108.564 E46.0505
G1 X156.560 Y107.884 E46.2514
G1 X156.065 Y107.436 E46.3625
G1 X155.812 Y107.147 E46.4263
G1 X155.515 Y106.732 E46.5112
G1 X154.940 Y105.677 E46.7110
G1 X154.635 Y105.281 E46.7941
G1 X154.278 Y104.937 E46.8766
G1 X153.873 Y104.647 E46.9594
G1 X153.321 Y104.366 E47.0624
G1 X152.843 Y104.088 E47.1544
G1 X152.439 Y103.786 E47.2383
G1 X152.060 Y103.431 E47.3246
G1 X151.820 Y103.158 E47.3851
G1 X151.515 Y102.732 E47.4722
G1 X150.940 Y101.677 E47.6720
G1 X150.635 Y101.281 E47.7551
G1 X150.278 Y100.937 E47.8376
G1 X149.876 Y100.649 E47.9198
G1 X148.975 Y100.173 E48.0893
G1 X148.566 Y99.889 E48.1721
G1 X148.163 Y99.535 E48.2613
G1 X147.812 Y99.148 E48.3482
G1 X147.517 Y98.735 E48.4326
G1 X147.261 Y98.279 E48.5196
G1 X147.011 Y97.656 E48.6312
G1 X146.880 Y97.146 E48.7188
G1 X146.809 Y96.642 E48.8034
G1 X146.790 Y96.203 E48.8765
G1 X146.789 Y95.165 E49.0491
G1 X146.754 Y94.685 E49.1291
G1 X146.645 Y94.200 E49.2118
G1 X146.467 Y93.736 E49.2944
G1 X146.224 Y93.305 E49.3767
G1 X145.920 Y92.911 E49.4595
G1 X145.559 Y92.564 E49.5428
G1 X144.560 Y91.884 E49.7437
G1 X144.065 Y91.436 E49.8548
G1 X143.812 Y91.147 E49.9186
G1 X143.515 Y90.732 E50.0035
G1 X142.940 Y89.677 E50.2033
G1 X142.635 Y89.281 E50.2864
G1 X142.278 Y88.937 E50.3689
G1 X141.876 Y88.649 E50.4511
G1 X140.980 Y88.176 E50.6196
G1 X140.434 Y87.781 E50.7317
G1 X140.059 Y87.431 E50.8170
G1 X139.820 Y87.158 E50.8773
G1 X139.510 Y86.726 E50.9658
G1 X139.212 Y86.254 E51.0586
G1 X138.891 Y85.878 E51.1408
G1 X138.518 Y85.550 E51.2234
G1 X138.100 Y85.280 E51.3062
G1 X137.649 Y85.075 E51.3885
G1 X137.166 Y84.935 E51.4722
G1 X136.492 Y84.864 E51.5849
G1 X135.438 Y84.863 E51.7602
G1 X134.951 Y84.837 E51.8413
G1 X134.443 Y84.759 E51.9267
G1 X133.935 Y84.621 E52.0143
G1 X133.453 Y84.430 E52.1005
G1 X132.859 Y84.098 E52.2137
G1 X132.557 Y83.880 E52.2756
G1 X132.170 Y83.543 E52.3609
G1 X131.732 Y83.045 E52.4712
G1 X131.196 Y82.234 E52.6329
G1 X130.874 Y81.861 E52.7148
G1 X130.498 Y81.536 E52.7975
G1 X130.079 Y81.270 E52.8800
G1 X129.627 Y81.067 E52.9624
G1 X129.143 Y80.931 E53.0460
G1 X128.491 Y80.864 E53.1550
G1 X127.438 Y80.863 E53.3302
G1 X126.951 Y80.837 E53.4113
G1 X126.443 Y80.759 E53.4967
G1 X125.935 Y80.621 E53.5843
G1 X125.453 Y80.430 E53.6705
G1 X124.860 Y80.098 E53.7835
G1 X124.436 Y79.782 E53.8715
G1 X124.170 Y79.543 E53.9309
G1 X123.728 Y79.040 E54.0423
G1 X123.189 Y78.227 E54.2045
G1 X122.865 Y77.855 E54.2865
G1 X122.488 Y77.532 E54.3691
G1 X122.067 Y77.268 E54.4517
G1 X121.614 Y77.067 E54.5341
G1 X121.131 Y76.933 E54.6175
G1 X120.490 Y76.870 E54.7246
G1 X51.479 Y76.870 E66.2012
G1 X50.987 Y76.845 E66.2831
G1 X50.494 Y76.773 E66.3660
G1 X49.925 Y76.619 E66.4640
G1 X49.599 Y76.496 E66.5219
G1 X48.910 Y76.190 E66.6473
G1 X48.426 Y76.064 E66.7305
G1 X47.933 Y76.009 E66.8130
G1 X47.436 Y76.027 E66.8957
G1 X46.939 Y76.119 E66.9798
G1 X45.722 Y76.602 E67.1975
G1 X45.096 Y76.777 E67.3056
G1 X44.502 Y76.856 E67.4052
G1 X44.137 Y76.870 E67.4660
G1 X39.436 Y76.863 E68.2478
G1 X38.946 Y76.837 E68.3294
G1 X38.437 Y76.759 E68.4150
G1 X37.927 Y76.620 E68.5029
G1 X37.443 Y76.426 E68.5896
G1 X36.848 Y76.092 E68.7031
G1 X36.429 Y75.777 E68.7903
G1 X36.066 Y75.438 E68.8729
G1 X35.820 Y75.157 E68.9350
G1 X35.509 Y74.725 E69.0235
G1 X35.253 Y74.268 E69.1106
G1 X35.058 Y73.800 E69.1949
G1 X34.877 Y73.137 E69.3092
G1 X34.825 Y72.803 E69.3654
G1 X34.792 Y72.308 E69.4479
G1 X34.791 Y67.475 E70.2517
G1 X34.817 Y66.986 E70.3331
G1 X34.896 Y66.481 E70.4181
G1 X35.033 Y65.981 E70.5043
G1 X35.301 Y65.342 E70.6196
G1 X35.466 Y65.045 E70.6761
G1 X35.763 Y64.617 E70.7627
G1 X36.214 Y64.116 E70.8748
G1 X36.619 Y63.771 E70.9633
G1 X36.824 Y63.627 E71.0049
G0 F600 X36.906 Y63.570
M204 S700.00
M205 X7.00 Y7.00
G0 F7200 X36.360 Y64.432
M204 S800.00
M205 X10.00 Y10.00
G1 F600 X36.360 Y75.275 E72.8081
G1 X36.632 Y75.530 E72.8701
G1 X37.021 Y75.822 E72.9510
G1 X37.584 Y76.138 E73.0584
G1 X38.028 Y76.316 E73.1379
G1 X38.506 Y76.446 E73.2203
G1 X38.784 Y76.488 E73.2671
G1 X38.784 Y63.207 E75.4757
G1 X38.898 Y63.189 E75.4949
G1 X39.367 Y63.158 E75.5731
G1 X41.208 Y63.157 E75.8792
G1 X41.208 Y76.545 E78.1057
G1 X43.632 Y76.549 E78.5088
G1 X43.632 Y63.513 E80.6767
G1 X44.223 Y63.568 E80.7754
G1 X44.777 Y63.595 E80.8676
G1 X45.271 Y63.670 E80.9507
G1 X45.730 Y63.795 E81.0298
G1 X46.056 Y63.912 E81.0874
G1 X46.056 Y76.126 E83.1186
G1 X46.846 Y75.812 E83.2600
G1 X47.403 Y75.708 E83.3542
G1 X47.949 Y75.688 E83.4451
G1 X48.480 Y75.747 E83.5339
G1 X48.480 Y64.046 E85.4798
G1 X48.698 Y63.988 E85.5173
G1 X49.814 Y63.464 E85.7224
G1 X50.529 Y63.248 E85.8466
G1 X50.904 Y63.189 E85.9097
G1 X50.904 Y76.509 E88.1248
G1 X51.026 Y76.527 E88.1453
G1 X51.377 Y76.545 E88.2038
G0 F600 X51.477 Y76.550
G1 F2100 E82.0038
M204 S700.00
M205 X7.00 Y7.00
G0 F7200 X53.328 Y76.550
M204 S800.00
M205 X10.00 Y10.00
G1 F1800 E88.2138
G1 F600 X53.328 Y63.150 E90.4422
G1 X55.752 Y63.150 E90.8453
G1 X55.752 Y76.550 E93.0738
G1 X58.176 Y76.550 E93.4769
G1 X58.176 Y63.150 E95.7053
G1 X60.600 Y63.150 E96.1084
G1 X60.600 Y76.550 E98.3368
G1 X63.024 Y76.550 E98.7400
G1 X63.024 Y63.150 E100.9684
G1 X65.448 Y63.150 E101.3715
G1 X65.448 Y76.550 E103.5999
G1 X67.872 Y76.550 E104.0030
G1 X67.872 Y63.150 E106.2315
G1 X70.296 Y63.150 E106.6346
G1 X70.296 Y76.550 E108.8630
G1 X72.720 Y76.550 E109.2661
G1 X72.720 Y63.150 E111.4946
G1 X75.144 Y63.150 E111.8977
G1 X75.144 Y76.550 E114.1261
G1 X77.568 Y76.550 E114.5292
G1 X77.568 Y63.150 E116.7576
G1 X79.992 Y63.150 E117.1608
G1 X79.992 Y76.550 E119.3892
G1 X82.416 Y76.550 E119.7923
G1 X82.416 Y63.150 E122.0207
G1 X84.840 Y63.150 E122.4238
G1 X84.840 Y76.550 E124.6523
G1 X87.264 Y76.550 E125.0554
G1 X87.264 Y63.150 E127.2838
G1 X89.688 Y63.150 E127.6869
G1 X89.688 Y76.550 E129.9154
G1 X92.112 Y76.550 E130.3185
G1 X92.112 Y63.150 E132.5469
G1 X94.536 Y63.150 E132.9500
G1 X94.536 Y76.550 E135.1784
G1 X96.960 Y76.550 E135.5815
G1 X96.960 Y63.150 E137.8100
G1 X99.384 Y63.150 E138.2131
G1 X99.384 Y76.550 E140.4415
G1 X101.808 Y76.550 E140.8446
G1 X101.808 Y63.150 E143.0731
G1 X104.232 Y63.150 E143.4762
G1 X104.232 Y76.550 E145.7046
G1 X106.656 Y76.550 E146.1077
G1 X106.656 Y63.150 E148.3361
G1 X109.080 Y63.150 E148.7393
G1 X109.080 Y76.550 E150.9677
G1 X111.504 Y76.550 E151.3708
G1 X111.504 Y63.150 E153.5992
G1 X113.928 Y63.150 E154.0023
G1 X113.928 Y76.550 E156.2308
G1 X116.352 Y76.550 E156.6339
G1 X116.352 Y63.150 E158.8623
G1 X118.776 Y63.150 E159.2654
G1 X118.776 Y76.550 E161.4939
G1 X120.502 Y76.550 E161.7809
G1 X121.194 Y76.618 E161.8965
G1 X121.200 Y76.619 E161.8975
G1 X121.200 Y63.150 E164.1374
G1 X123.624 Y63.150 E164.5406
G1 X123.624 Y78.304 E167.0607
G1 X123.982 Y78.846 E167.1687
G1 X124.395 Y79.314 E167.2725
G1 X124.638 Y79.533 E167.3269
G1 X125.037 Y79.830 E167.4096
G1 X125.590 Y80.139 E167.5150
G1 X126.036 Y80.317 E167.5948
G1 X126.048 Y80.320 E167.5969
G1 X126.048 Y63.150 E170.4523
G1 X128.131 Y63.150 E170.7987
